; generated by PrusaSlicer 2.1.0+ on 2019-11-01 at 17:46:20 UTC

; 

; external perimeters extrusion width = 0.45mm
; perimeters extrusion width = 0.45mm
; infill extrusion width = 0.45mm
; solid infill extrusion width = 0.45mm
; top infill extrusion width = 0.40mm
; first layer extrusion width = 0.42mm

M73 P0 R21
M73 Q0 S21
M201 X1000 Y1000 Z1000 E5000 ; sets maximum accelerations, mm/sec^2
M203 X200 Y200 Z12 E120 ; sets maximum feedrates, mm/sec
M204 P1250 R1250 T1250 ; sets acceleration (P, T) and retract acceleration (R), mm/sec^2
M205 X8.00 Y8.00 Z0.40 E1.50 ; sets the jerk limits, mm/sec
M205 S0 T0 ; sets the minimum extruding and travel feed rate, mm/sec
M107
M862.3 P "MK3S" ; printer model check
M862.1 P0.4 ; nozzle diameter check
M115 U3.8.0 ; tell printer latest fw version
G90 ; use absolute coordinates
M83 ; extruder relative mode
M104 S215 ; set extruder temp
M140 S60 ; set bed temp
M190 S60 ; wait for bed temp
M109 S215 ; wait for extruder temp
G28 W ; home all without mesh bed level
G80 ; mesh bed leveling
G1 Y-3.0 F1000.0 ; go outside print area
G92 E0.0
G1 X60.0 E9.0 F1000.0 ; intro line
M73 Q0 S21
M73 P0 R21
G1 X100.0 E12.5 F1000.0 ; intro line
G92 E0.0
M221 S95
G21 ; set units to millimeters
G90 ; use absolute coordinates
M83 ; use relative distances for extrusion
M900 K30 ; Filament gcode
;BEFORE_LAYER_CHANGE
G92 E0.0
;0.2


G1 E-0.80000 F2100.00000
G1 Z0.600 F10800.000
;AFTER_LAYER_CHANGE
;0.2
G1 X116.494 Y98.825
G1 Z0.200
G1 E0.80000 F2100.00000
M204 S1000
G1 F1200
G1 X117.772 Y97.366 E0.06083
G1 X119.353 Y96.139 E0.06273
G1 X120.191 Y95.663 E0.03022
G1 X121.463 Y95.118 E0.04341
G1 X123.423 Y94.637 E0.06327
G1 X125.334 Y94.537 E0.06001
G1 X126.420 Y94.616 E0.03412
G1 X127.386 Y94.786 E0.03077
G1 X129.299 Y95.418 E0.06318
G1 X131.004 Y96.376 E0.06128
G1 X132.091 Y97.242 E0.04359
G1 X132.784 Y97.936 E0.03076
G1 X133.985 Y99.551 E0.06309
G1 X134.829 Y101.311 E0.06121
G1 X135.323 Y103.169 E0.06029
G1 X135.437 Y104.104 E0.02951
G1 X135.463 Y105.346 E0.03896
G1 X135.339 Y106.719 E0.04324
G1 X135.149 Y107.650 E0.02977
G1 X134.506 Y109.465 E0.06039
G1 X133.496 Y111.189 E0.06265
G1 X132.185 Y112.673 E0.06210
G1 X130.618 Y113.879 E0.06200
G1 X129.394 Y114.538 E0.04359
G1 X128.471 Y114.905 E0.03113
G1 X126.508 Y115.373 E0.06327
G1 X124.435 Y115.458 E0.06507
G1 X122.529 Y115.195 E0.06031
G1 X120.627 Y114.547 E0.06300
G1 X119.773 Y114.112 E0.03005
G1 X118.614 Y113.346 E0.04357
G1 X117.177 Y112.021 E0.06128
G1 X116.006 Y110.434 E0.06183
G1 X115.165 Y108.673 E0.06121
G1 X114.677 Y106.827 E0.05985
G1 X114.563 Y105.899 E0.02932
G1 X114.537 Y104.654 E0.03904
G1 X114.661 Y103.283 E0.04316
G1 X114.849 Y102.359 E0.02958
G1 X115.488 Y100.548 E0.06021
G1 X116.464 Y98.877 E0.06067
G1 X116.788 Y99.066 F10800.000
G1 F1200
G1 X118.034 Y97.638 E0.05943
G1 X119.552 Y96.459 E0.06027
G1 X120.359 Y96.000 E0.02912
G1 X121.601 Y95.470 E0.04233
G1 X123.485 Y95.009 E0.06080
G1 X125.334 Y94.914 E0.05806
G1 X126.380 Y94.991 E0.03289
G1 X127.306 Y95.154 E0.02948
G1 X129.150 Y95.765 E0.06089
G1 X130.787 Y96.684 E0.05888
G1 X131.847 Y97.530 E0.04251
G1 X132.510 Y98.195 E0.02947
G1 X133.663 Y99.747 E0.06063
G1 X134.476 Y101.444 E0.05899
G1 X134.951 Y103.230 E0.05793
G1 X135.060 Y104.124 E0.02826
G1 X135.086 Y105.332 E0.03788
G1 X134.966 Y106.669 E0.04208
G1 X134.783 Y107.559 E0.02851
G1 X134.163 Y109.309 E0.05819
G1 X133.189 Y110.970 E0.06037
G1 X131.930 Y112.396 E0.05966
G1 X130.424 Y113.555 E0.05958
G1 X129.230 Y114.198 E0.04250
G1 X128.341 Y114.552 E0.03000
G1 X126.449 Y115.000 E0.06098
G1 X124.449 Y115.081 E0.06278
G1 X122.618 Y114.828 E0.05794
G1 X120.790 Y114.207 E0.06054
G1 X119.966 Y113.788 E0.02896
G1 X118.836 Y113.042 E0.04249
G1 X117.452 Y111.764 E0.05905
G1 X116.328 Y110.238 E0.05941
G1 X115.520 Y108.546 E0.05881
G1 X115.050 Y106.773 E0.05750
G1 X114.940 Y105.873 E0.02843
G1 X114.914 Y104.668 E0.03778
G1 X115.034 Y103.334 E0.04200
G1 X115.217 Y102.443 E0.02851
G1 X115.831 Y100.704 E0.05784
G1 X116.757 Y99.118 E0.05757
G1 X117.078 Y99.366 F10800.000
G1 F1200
G1 X117.585 Y98.711 E0.02598
G1 X118.176 Y98.074 E0.02725
G1 X118.823 Y97.492 E0.02730
G1 X119.538 Y96.957 E0.02798
G1 X120.300 Y96.491 E0.02802
G1 X121.100 Y96.097 E0.02795
G1 X121.933 Y95.777 E0.02799
G1 X122.794 Y95.536 E0.02801
G1 X123.670 Y95.375 E0.02795
G1 X124.554 Y95.296 E0.02782
G1 X125.451 Y95.296 E0.02813
G1 X126.399 Y95.385 E0.02985
G1 X127.316 Y95.562 E0.02928
G1 X128.140 Y95.802 E0.02692
G1 X128.837 Y96.069 E0.02339
G1 X129.499 Y96.383 E0.02297
G1 X130.274 Y96.833 E0.02810
G1 X131.000 Y97.350 E0.02795
G1 X131.663 Y97.920 E0.02739
G1 X132.285 Y98.562 E0.02803
G1 X132.848 Y99.261 E0.02815
G1 X133.343 Y100.009 E0.02812
G1 X133.771 Y100.811 E0.02849
G1 X134.123 Y101.648 E0.02847
G1 X134.359 Y102.381 E0.02416
G1 X134.537 Y103.137 E0.02435
G1 X134.663 Y103.995 E0.02719
G1 X134.712 Y104.862 E0.02724
G1 X134.687 Y105.743 E0.02762
G1 X134.572 Y106.671 E0.02933
G1 X134.367 Y107.589 E0.02947
G1 X134.075 Y108.481 E0.02945
G1 X133.698 Y109.342 E0.02946
G1 X133.346 Y109.985 E0.02299
G1 X132.939 Y110.611 E0.02340
G1 X132.415 Y111.288 E0.02686
G1 X131.824 Y111.926 E0.02725
G1 X131.177 Y112.508 E0.02730
G1 X130.462 Y113.042 E0.02797
G1 X129.716 Y113.501 E0.02748
G1 X128.913 Y113.898 E0.02806
G1 X128.077 Y114.219 E0.02809
G1 X127.217 Y114.461 E0.02803
G1 X126.339 Y114.623 E0.02799
G1 X125.454 Y114.704 E0.02787
G1 X124.557 Y114.704 E0.02810
G1 X123.614 Y114.617 E0.02971
G1 X122.683 Y114.438 E0.02973
G1 X121.859 Y114.198 E0.02690
G1 X121.176 Y113.936 E0.02295
G1 X120.500 Y113.617 E0.02342
G1 X119.739 Y113.175 E0.02759
G1 X119.010 Y112.657 E0.02807
G1 X118.344 Y112.087 E0.02747
G1 X117.721 Y111.446 E0.02803
G1 X117.147 Y110.731 E0.02874
G1 X116.644 Y109.967 E0.02868
G1 X116.227 Y109.186 E0.02778
G1 X115.884 Y108.372 E0.02768
G1 X115.643 Y107.626 E0.02459
G1 X115.464 Y106.866 E0.02447
G1 X115.337 Y106.005 E0.02729
G1 X115.288 Y105.138 E0.02725
G1 X115.313 Y104.257 E0.02762
G1 X115.428 Y103.329 E0.02933
G1 X115.633 Y102.411 E0.02947
G1 X115.925 Y101.519 E0.02945
G1 X116.303 Y100.658 E0.02947
G1 X116.654 Y100.014 E0.02300
G1 X117.043 Y99.415 E0.02239
G1 X117.359 Y99.621 F10800.000
G1 F1200
G1 X117.878 Y98.949 E0.02661
G1 X118.447 Y98.337 E0.02619
G1 X119.069 Y97.778 E0.02623
G1 X119.757 Y97.265 E0.02690
G1 X120.489 Y96.817 E0.02693
G1 X121.243 Y96.445 E0.02634
G1 X122.044 Y96.138 E0.02691
G1 X122.871 Y95.905 E0.02692
G1 X123.713 Y95.750 E0.02686
G1 X124.563 Y95.673 E0.02675
G1 X125.425 Y95.672 E0.02704
G1 X126.337 Y95.757 E0.02871
G1 X127.219 Y95.927 E0.02817
G1 X128.013 Y96.157 E0.02591
G1 X128.682 Y96.413 E0.02247
G1 X129.331 Y96.720 E0.02250
G1 X130.063 Y97.146 E0.02654
G1 X130.761 Y97.642 E0.02688
G1 X131.399 Y98.189 E0.02632
G1 X131.997 Y98.805 E0.02694
G1 X132.538 Y99.477 E0.02706
G1 X133.015 Y100.196 E0.02702
G1 X133.427 Y100.965 E0.02738
G1 X133.767 Y101.771 E0.02741
G1 X133.998 Y102.489 E0.02366
G1 X134.168 Y103.215 E0.02338
G1 X134.289 Y104.041 E0.02617
G1 X134.336 Y104.875 E0.02619
G1 X134.310 Y105.722 E0.02658
G1 X134.199 Y106.616 E0.02822
G1 X134.006 Y107.480 E0.02777
G1 X133.726 Y108.339 E0.02832
G1 X133.363 Y109.168 E0.02839
G1 X133.018 Y109.798 E0.02250
G1 X132.628 Y110.399 E0.02247
G1 X132.122 Y111.051 E0.02586
G1 X131.553 Y111.663 E0.02620
G1 X130.931 Y112.222 E0.02623
G1 X130.244 Y112.735 E0.02689
G1 X129.526 Y113.175 E0.02640
G1 X128.754 Y113.556 E0.02698
G1 X127.950 Y113.864 E0.02700
G1 X127.123 Y114.096 E0.02693
G1 X126.279 Y114.251 E0.02690
G1 X125.428 Y114.327 E0.02679
G1 X124.566 Y114.327 E0.02703
G1 X123.658 Y114.242 E0.02860
G1 X122.780 Y114.073 E0.02805
G1 X121.987 Y113.843 E0.02589
G1 X121.317 Y113.587 E0.02247
G1 X120.669 Y113.280 E0.02249
G1 X119.937 Y112.854 E0.02657
G1 X119.235 Y112.355 E0.02698
G1 X118.597 Y111.807 E0.02639
G1 X117.998 Y111.190 E0.02695
G1 X117.447 Y110.502 E0.02763
G1 X116.963 Y109.768 E0.02757
G1 X116.571 Y109.031 E0.02617
G1 X116.240 Y108.248 E0.02665
G1 X116.008 Y107.532 E0.02361
G1 X115.833 Y106.788 E0.02397
G1 X115.711 Y105.959 E0.02626
G1 X115.664 Y105.125 E0.02620
G1 X115.690 Y104.278 E0.02658
G1 X115.801 Y103.384 E0.02822
G1 X115.999 Y102.503 E0.02833
G1 X116.274 Y101.662 E0.02775
G1 X116.637 Y100.831 E0.02841
G1 X116.982 Y100.201 E0.02251
G1 X117.327 Y99.671 E0.01983
G1 X117.643 Y99.877 F10800.000
G1 F1200
G1 X118.170 Y99.187 E0.02722
G1 X118.717 Y98.601 E0.02514
G1 X119.314 Y98.065 E0.02517
G1 X119.975 Y97.573 E0.02582
G1 X120.678 Y97.143 E0.02585
G1 X121.401 Y96.788 E0.02526
G1 X122.171 Y96.493 E0.02583
G1 X122.964 Y96.271 E0.02583
G1 X123.772 Y96.123 E0.02577
G1 X124.588 Y96.049 E0.02567
G1 X125.416 Y96.050 E0.02597
G1 X126.275 Y96.129 E0.02705
G1 X127.123 Y96.291 E0.02707
G1 X127.886 Y96.512 E0.02489
G1 X128.541 Y96.763 E0.02199
G1 X129.162 Y97.057 E0.02156
G1 X129.865 Y97.467 E0.02552
G1 X130.536 Y97.944 E0.02580
G1 X131.146 Y98.469 E0.02524
G1 X131.720 Y99.061 E0.02586
G1 X132.239 Y99.707 E0.02597
G1 X132.695 Y100.396 E0.02593
G1 X133.091 Y101.135 E0.02629
G1 X133.410 Y101.894 E0.02583
G1 X133.632 Y102.583 E0.02268
G1 X133.799 Y103.293 E0.02288
G1 X133.915 Y104.087 E0.02514
G1 X133.959 Y104.888 E0.02514
G1 X133.933 Y105.702 E0.02554
G1 X133.826 Y106.560 E0.02711
G1 X133.640 Y107.389 E0.02664
G1 X133.370 Y108.213 E0.02718
G1 X133.028 Y108.995 E0.02678
G1 X132.698 Y109.599 E0.02156
G1 X132.316 Y110.187 E0.02199
G1 X131.830 Y110.812 E0.02485
G1 X131.283 Y111.399 E0.02514
G1 X130.686 Y111.935 E0.02517
G1 X130.025 Y112.427 E0.02581
G1 X129.337 Y112.849 E0.02532
G1 X128.596 Y113.213 E0.02589
G1 X127.824 Y113.508 E0.02590
G1 X127.030 Y113.731 E0.02584
G1 X126.220 Y113.878 E0.02581
G1 X125.404 Y113.951 E0.02571
G1 X124.576 Y113.950 E0.02596
G1 X123.720 Y113.870 E0.02694
G1 X122.876 Y113.708 E0.02695
G1 X122.114 Y113.488 E0.02488
G1 X121.472 Y113.243 E0.02154
G1 X120.838 Y112.942 E0.02201
G1 X120.134 Y112.532 E0.02554
G1 X119.461 Y112.053 E0.02590
G1 X118.849 Y111.527 E0.02531
G1 X118.276 Y110.934 E0.02586
G1 X117.747 Y110.274 E0.02652
G1 X117.284 Y109.568 E0.02646
G1 X116.908 Y108.862 E0.02509
G1 X116.596 Y108.124 E0.02511
G1 X116.373 Y107.438 E0.02263
G1 X116.202 Y106.709 E0.02347
G1 X116.085 Y105.913 E0.02522
G1 X116.041 Y105.112 E0.02514
G1 X116.067 Y104.298 E0.02554
G1 X116.174 Y103.440 E0.02711
G1 X116.360 Y102.611 E0.02664
G1 X116.624 Y101.804 E0.02662
G1 X116.972 Y101.005 E0.02735
G1 X117.302 Y100.401 E0.02156
G1 X117.610 Y99.927 E0.01772
G1 X117.926 Y100.133 F10800.000
G1 F1200
G1 X118.463 Y99.426 E0.02784
G1 X118.987 Y98.864 E0.02408
G1 X119.559 Y98.351 E0.02410
G1 X120.193 Y97.881 E0.02474
G1 X120.867 Y97.470 E0.02476
G1 X121.559 Y97.130 E0.02418
G1 X122.297 Y96.849 E0.02475
G1 X123.057 Y96.636 E0.02474
G1 X123.832 Y96.495 E0.02469
G1 X124.597 Y96.426 E0.02409
G1 X125.391 Y96.426 E0.02490
G1 X126.214 Y96.501 E0.02592
G1 X127.027 Y96.656 E0.02596
G1 X127.759 Y96.867 E0.02387
G1 X128.386 Y97.107 E0.02104
G1 X128.993 Y97.395 E0.02107
G1 X129.668 Y97.788 E0.02450
G1 X130.309 Y98.246 E0.02472
G1 X130.893 Y98.749 E0.02416
G1 X131.443 Y99.317 E0.02477
G1 X131.939 Y99.936 E0.02487
G1 X132.376 Y100.597 E0.02483
G1 X132.747 Y101.290 E0.02466
G1 X133.054 Y102.018 E0.02478
G1 X133.271 Y102.691 E0.02218
G1 X133.430 Y103.371 E0.02190
G1 X133.540 Y104.132 E0.02412
G1 X133.582 Y104.900 E0.02409
G1 X133.557 Y105.681 E0.02450
G1 X133.453 Y106.503 E0.02599
G1 X133.274 Y107.297 E0.02551
G1 X133.021 Y108.070 E0.02550
G1 X132.693 Y108.822 E0.02572
G1 X132.371 Y109.412 E0.02107
G1 X132.004 Y109.974 E0.02105
G1 X131.537 Y110.574 E0.02384
G1 X131.013 Y111.136 E0.02409
G1 X130.441 Y111.649 E0.02410
G1 X129.808 Y112.119 E0.02474
G1 X129.148 Y112.522 E0.02424
G1 X128.438 Y112.871 E0.02481
G1 X127.698 Y113.153 E0.02481
G1 X126.938 Y113.365 E0.02475
G1 X126.162 Y113.506 E0.02473
G1 X125.395 Y113.574 E0.02412
G1 X124.601 Y113.574 E0.02489
G1 X123.782 Y113.498 E0.02581
G1 X122.972 Y113.344 E0.02585
G1 X122.241 Y113.133 E0.02386
G1 X121.614 Y112.893 E0.02105
G1 X121.007 Y112.605 E0.02106
G1 X120.332 Y112.211 E0.02451
G1 X119.687 Y111.751 E0.02482
G1 X119.102 Y111.247 E0.02423
G1 X118.553 Y110.678 E0.02477
G1 X118.047 Y110.045 E0.02542
G1 X117.604 Y109.369 E0.02535
G1 X117.245 Y108.692 E0.02402
G1 X116.952 Y107.999 E0.02358
G1 X116.739 Y107.343 E0.02164
G1 X116.570 Y106.631 E0.02296
G1 X116.460 Y105.868 E0.02418
G1 X116.418 Y105.100 E0.02409
G1 X116.443 Y104.319 E0.02450
G1 X116.547 Y103.497 E0.02599
G1 X116.726 Y102.703 E0.02551
G1 X116.979 Y101.930 E0.02550
G1 X117.307 Y101.178 E0.02573
G1 X117.629 Y100.588 E0.02107
G1 X117.893 Y100.183 E0.01515
G1 X118.209 Y100.389 F10800.000
G1 F1200
G1 X118.755 Y99.665 E0.02844
G1 X119.256 Y99.128 E0.02303
G1 X119.804 Y98.638 E0.02304
G1 X120.410 Y98.189 E0.02366
G1 X121.055 Y97.797 E0.02368
G1 X121.717 Y97.473 E0.02310
G1 X122.423 Y97.204 E0.02367
G1 X123.149 Y97.002 E0.02365
G1 X123.890 Y96.868 E0.02361
G1 X124.621 Y96.803 E0.02302
G1 X125.382 Y96.803 E0.02385
G1 X126.153 Y96.874 E0.02427
G1 X126.932 Y97.021 E0.02485
G1 X127.632 Y97.222 E0.02284
G1 X128.244 Y97.456 E0.02055
G1 X128.824 Y97.732 E0.02011
G1 X129.470 Y98.109 E0.02347
G1 X130.083 Y98.548 E0.02364
G1 X130.640 Y99.029 E0.02308
G1 X131.165 Y99.572 E0.02369
G1 X131.639 Y100.164 E0.02378
G1 X132.056 Y100.797 E0.02374
G1 X132.410 Y101.460 E0.02358
G1 X132.698 Y102.142 E0.02321
G1 X132.906 Y102.785 E0.02118
G1 X133.061 Y103.449 E0.02139
G1 X133.166 Y104.178 E0.02308
G1 X133.205 Y104.911 E0.02304
G1 X133.180 Y105.660 E0.02347
G1 X133.083 Y106.430 E0.02434
G1 X132.913 Y107.189 E0.02439
G1 X132.672 Y107.928 E0.02437
G1 X132.357 Y108.649 E0.02466
G1 X132.051 Y109.212 E0.02011
G1 X131.693 Y109.761 E0.02056
G1 X131.245 Y110.335 E0.02282
G1 X130.744 Y110.872 E0.02303
G1 X130.196 Y111.362 E0.02304
G1 X129.590 Y111.811 E0.02366
G1 X128.959 Y112.196 E0.02317
G1 X128.280 Y112.529 E0.02372
G1 X127.572 Y112.797 E0.02372
G1 X126.845 Y112.999 E0.02366
G1 X126.103 Y113.133 E0.02364
G1 X125.371 Y113.198 E0.02306
G1 X124.611 Y113.197 E0.02383
G1 X123.826 Y113.123 E0.02472
G1 X123.068 Y112.979 E0.02420
G1 X122.368 Y112.778 E0.02284
G1 X121.755 Y112.544 E0.02056
G1 X121.176 Y112.268 E0.02010
G1 X120.530 Y111.890 E0.02348
G1 X119.914 Y111.450 E0.02373
G1 X119.355 Y110.967 E0.02316
G1 X118.831 Y110.423 E0.02369
G1 X118.347 Y109.817 E0.02431
G1 X117.924 Y109.170 E0.02424
G1 X117.582 Y108.523 E0.02295
G1 X117.308 Y107.875 E0.02207
G1 X117.104 Y107.249 E0.02065
G1 X116.939 Y106.552 E0.02244
G1 X116.834 Y105.822 E0.02312
G1 X116.795 Y105.089 E0.02304
G1 X116.820 Y104.340 E0.02347
G1 X116.917 Y103.570 E0.02434
G1 X117.087 Y102.811 E0.02439
G1 X117.328 Y102.072 E0.02438
G1 X117.643 Y101.351 E0.02467
G1 X117.949 Y100.788 E0.02011
G1 X118.176 Y100.439 E0.01303
G1 X118.492 Y100.645 F10800.000
G1 F1200
G1 X118.619 Y100.451 E0.00727
G1 X119.047 Y99.903 E0.02180
G1 X119.526 Y99.392 E0.02197
G1 X120.048 Y98.926 E0.02197
G1 X120.627 Y98.497 E0.02258
G1 X121.243 Y98.123 E0.02259
G1 X121.875 Y97.815 E0.02202
G1 X122.548 Y97.560 E0.02259
G1 X123.226 Y97.371 E0.02204
G1 X123.933 Y97.242 E0.02253
G1 X124.630 Y97.180 E0.02196
G1 X125.357 Y97.179 E0.02278
G1 X126.092 Y97.246 E0.02315
G1 X126.836 Y97.386 E0.02375
G1 X127.505 Y97.578 E0.02182
G1 X128.089 Y97.800 E0.01959
G1 X128.654 Y98.069 E0.01962
G1 X129.272 Y98.430 E0.02244
G1 X129.844 Y98.839 E0.02204
G1 X130.376 Y99.297 E0.02201
G1 X130.877 Y99.815 E0.02260
G1 X131.329 Y100.379 E0.02267
G1 X131.736 Y100.997 E0.02319
G1 X132.066 Y101.615 E0.02196
G1 X132.342 Y102.266 E0.02218
G1 X132.540 Y102.878 E0.02018
G1 X132.692 Y103.527 E0.02088
G1 X132.791 Y104.222 E0.02203
G1 X132.828 Y104.923 E0.02199
G1 X132.804 Y105.638 E0.02244
G1 X132.710 Y106.373 E0.02323
G1 X132.547 Y107.097 E0.02327
G1 X132.316 Y107.802 E0.02326
G1 X132.022 Y108.476 E0.02305
G1 X131.723 Y109.025 E0.01961
G1 X131.382 Y109.548 E0.01960
G1 X130.953 Y110.096 E0.02181
G1 X130.474 Y110.608 E0.02197
G1 X129.952 Y111.074 E0.02197
G1 X129.373 Y111.503 E0.02258
G1 X128.771 Y111.869 E0.02209
G1 X128.122 Y112.186 E0.02264
G1 X127.447 Y112.442 E0.02263
G1 X126.753 Y112.633 E0.02257
G1 X126.045 Y112.761 E0.02256
G1 X125.347 Y112.821 E0.02199
