; generated by PrusaSlicer 2.1.0+ on 2019-12-15 at 20:51:14 UTC

; 

; external perimeters extrusion width = 0.45mm
; perimeters extrusion width = 0.45mm
; infill extrusion width = 0.45mm
; solid infill extrusion width = 0.45mm
; top infill extrusion width = 0.40mm
; first layer extrusion width = 0.42mm

M73 P0 R35
M73 Q0 S36
M201 X1000 Y1000 Z1000 E5000 ; sets maximum accelerations, mm/sec^2
M203 X200 Y200 Z12 E120 ; sets maximum feedrates, mm/sec
M204 P1250 R1250 T1250 ; sets acceleration (P, T) and retract acceleration (R), mm/sec^2
M205 X8.00 Y8.00 Z0.40 E1.50 ; sets the jerk limits, mm/sec
M205 S0 T0 ; sets the minimum extruding and travel feed rate, mm/sec
M107
M862.3 P "MK3S" ; printer model check
M862.1 P0.4 ; nozzle diameter check
M115 U3.8.1 ; tell printer latest fw version
G90 ; use absolute coordinates
M83 ; extruder relative mode
M104 S215 ; set extruder temp
M140 S60 ; set bed temp
M190 S60 ; wait for bed temp
M109 S215 ; wait for extruder temp
G28 W ; home all without mesh bed level
G80 ; mesh bed leveling
G1 Y-3.0 F1000.0 ; go outside print area
G92 E0.0
G1 X60.0 E9.0 F1000.0 ; intro line
M73 Q0 S36
M73 P0 R35
G1 X100.0 E12.5 F1000.0 ; intro line
G92 E0.0
M221 S95
G21 ; set units to millimeters
G90 ; use absolute coordinates
M83 ; use relative distances for extrusion
M900 K30 ; Filament gcode
;BEFORE_LAYER_CHANGE
G92 E0.0
;0.2


G1 E-0.80000 F2100.00000
G1 Z0.600 F10800.000
;AFTER_LAYER_CHANGE
;0.2
G1 X78.077 Y96.152
G1 Z0.200
G1 E0.80000 F2100.00000
M204 S1000
G1 F1200
G1 X78.823 Y95.633 E0.02850
G1 X79.600 Y95.341 E0.02600
G1 X80.354 Y95.241 E0.02385
G1 X111.997 Y95.241 E0.99215
G1 X170.330 Y98.574 E1.83198
G1 X171.223 Y98.907 E0.02990
G1 X171.992 Y99.466 E0.02980
G1 X172.580 Y100.206 E0.02963
G1 X172.953 Y101.089 E0.03006
G1 X173.073 Y101.987 E0.02839
G1 X173.073 Y108.022 E0.18923
G1 X173.000 Y108.708 E0.02162
G1 X172.605 Y109.751 E0.03498
G1 X171.953 Y110.571 E0.03286
G1 X170.996 Y111.205 E0.03599
G1 X169.957 Y111.488 E0.03375
G1 X112.091 Y114.757 E1.81725
G1 X80.254 Y114.756 E0.99822
G1 X79.345 Y114.586 E0.02899
G1 X78.506 Y114.182 E0.02919
G1 X77.803 Y113.570 E0.02923
G1 X77.293 Y112.812 E0.02865
G1 X77.036 Y112.118 E0.02319
G1 X76.927 Y111.303 E0.02578
G1 X76.941 Y98.436 E0.40346
G1 X77.142 Y97.540 E0.02877
G1 X77.552 Y96.752 E0.02786
G1 X78.038 Y96.197 E0.02312
G1 F8640
G1 X78.823 Y95.633 E-0.22339
G1 X79.600 Y95.341 E-0.19148
G1 X80.354 Y95.241 E-0.17564
G1 X81.088 Y95.241 E-0.16950
G1 E-0.04000 F2100.00000
G1 Z0.800 F10800.000
G1 X80.396 Y109.087
G1 Z0.200
G1 E0.80000 F2100.00000
G1 F1200
G1 X81.850 Y109.087 E0.04562
G1 X81.850 Y111.290 E0.06907
G1 X80.415 Y111.276 E0.04502
G1 X80.396 Y111.211 E0.00214
G1 X80.396 Y109.147 E0.06470
G1 X80.018 Y108.710 F10800.000
G1 F1200
G1 X82.228 Y108.710 E0.06926
G1 X82.228 Y111.668 E0.09274
G1 X80.387 Y111.663 E0.05772
G1 X80.236 Y111.614 E0.00497
G1 X80.105 Y111.502 E0.00539
G1 X80.035 Y111.356 E0.00509
G1 X80.018 Y111.236 E0.00381
G1 X80.018 Y108.770 E0.07732
G1 X80.365 Y108.909 F10800.000
G1 F8640
G1 X82.228 Y108.710 E-0.51025
G1 X82.228 Y109.792 E-0.24975
G1 E-0.04000 F2100.00000
G1 Z0.800 F10800.000
G1 X81.737 Y109.979
G1 Z0.200
G1 E0.80000 F2100.00000
G1 F1200
G1 X81.128 Y109.370 E0.02760
G1 X80.678 Y109.370 E0.01439
G1 X80.678 Y109.465 E0.00305
G1 X81.568 Y110.354 E0.04027
G1 X81.568 Y110.899 E0.01744
G1 X80.678 Y110.010 E0.04027
G1 X80.678 Y110.554 E0.01744
G1 X81.296 Y111.171 E0.02795
G1 F8640
G1 X80.678 Y110.554 E-0.20154
G1 X80.678 Y110.010 E-0.12575
G1 X81.568 Y110.899 E-0.29039
G1 X81.568 Y110.354 E-0.12575
G1 X81.517 Y110.304 E-0.01658
G1 E-0.04000 F2100.00000
G1 Z0.800 F10800.000
G1 X81.850 Y100.913
G1 Z0.200
G1 E0.80000 F2100.00000
G1 F1200
G1 X80.396 Y100.913 E0.04560
G1 X80.398 Y98.750 E0.06782
G1 X80.414 Y98.721 E0.00103
G1 X81.850 Y98.709 E0.04505
G1 X81.850 Y100.853 E0.06723
G1 X82.228 Y101.290 F10800.000
G1 F1200
G1 X80.019 Y101.290 E0.06926
G1 X80.021 Y98.713 E0.08081
G1 X80.079 Y98.536 E0.00584
G1 X80.204 Y98.404 E0.00569
G1 X80.309 Y98.353 E0.00364
G1 X80.428 Y98.332 E0.00381
G1 X82.228 Y98.332 E0.05642
G1 X82.228 Y101.230 E0.09088
G1 X81.851 Y101.156 F10800.000
G1 F8640
G1 X80.019 Y101.290 E-0.51021
G1 X80.020 Y100.208 E-0.24979
G1 E-0.04000 F2100.00000
G1 Z0.800 F10800.000
G1 X81.292 Y100.800
G1 Z0.200
G1 E0.80000 F2100.00000
G1 F1200
G1 X80.680 Y100.188 E0.02783
G1 X80.680 Y99.641 E0.01756
G1 X81.568 Y100.529 E0.04035
G1 X81.568 Y99.982 E0.01758
G1 X80.681 Y99.095 E0.04033
G1 X80.681 Y99.002 E0.00301
G1 X81.130 Y98.998 E0.01444
G1 X81.737 Y99.605 E0.02761
G1 F8640
G1 X81.130 Y98.998 E-0.19834
G1 X80.681 Y99.002 E-0.10375
G1 X80.681 Y99.095 E-0.02159
G1 X81.568 Y99.982 E-0.28968
G1 X81.568 Y100.529 E-0.12625
G1 X81.505 Y100.467 E-0.02040
G1 E-0.04000 F2100.00000
G1 Z0.800 F10800.000
G1 X163.973 Y105.000
G1 Z0.200
G1 E0.80000 F2100.00000
G1 F1200
G1 X164.015 Y104.538 E0.01455
G1 X164.138 Y104.090 E0.01456
G1 X164.340 Y103.672 E0.01456
G1 X164.605 Y103.307 E0.01414
G1 X164.783 Y103.120 E0.00811
G1 X165.136 Y102.839 E0.01414
G1 X165.545 Y102.619 E0.01456
G1 X165.986 Y102.475 E0.01455
G1 X166.446 Y102.413 E0.01456
G1 X166.897 Y102.433 E0.01414
G1 X167.151 Y102.480 E0.00810
G1 X167.576 Y102.617 E0.01401
G1 X167.989 Y102.839 E0.01467
G1 X168.342 Y103.120 E0.01417
G1 X168.523 Y103.310 E0.00822
G1 X168.785 Y103.672 E0.01401
G1 X168.987 Y104.090 E0.01455
G1 X169.110 Y104.538 E0.01456
G1 X169.152 Y105.000 E0.01455
G1 X169.110 Y105.462 E0.01455
G1 X168.987 Y105.910 E0.01456
G1 X168.785 Y106.328 E0.01456
G1 X168.520 Y106.693 E0.01414
G1 X168.342 Y106.880 E0.00811
G1 X167.989 Y107.161 E0.01414
G1 X167.580 Y107.381 E0.01456
G1 X167.139 Y107.525 E0.01455
G1 X166.679 Y107.587 E0.01456
G1 X166.228 Y107.567 E0.01414
G1 X165.974 Y107.520 E0.00810
G1 X165.549 Y107.383 E0.01401
G1 X165.136 Y107.161 E0.01467
G1 X164.783 Y106.880 E0.01417
G1 X164.602 Y106.690 E0.00822
G1 X164.340 Y106.328 E0.01401
G1 X164.138 Y105.910 E0.01455
G1 X164.015 Y105.462 E0.01456
G1 X163.978 Y105.060 E0.01267
G1 X164.354 Y105.026 F10800.000
G1 F1200
G1 X164.387 Y104.605 E0.01323
G1 X164.493 Y104.223 E0.01243
G1 X164.665 Y103.866 E0.01243
G1 X164.895 Y103.549 E0.01228
G1 X165.038 Y103.399 E0.00651
G1 X165.345 Y103.155 E0.01228
G1 X165.694 Y102.967 E0.01243
G1 X166.071 Y102.845 E0.01243
G1 X166.463 Y102.791 E0.01243
G1 X166.855 Y102.809 E0.01228
G1 X167.059 Y102.846 E0.00651
G1 X167.428 Y102.966 E0.01216
G1 X167.780 Y103.155 E0.01254
G1 X168.087 Y103.399 E0.01229
G1 X168.233 Y103.552 E0.00663
G1 X168.460 Y103.866 E0.01216
G1 X168.632 Y104.223 E0.01243
G1 X168.738 Y104.605 E0.01243
G1 X168.773 Y105.000 E0.01243
G1 X168.738 Y105.395 E0.01243
G1 X168.632 Y105.777 E0.01243
G1 X168.460 Y106.134 E0.01243
G1 X168.230 Y106.451 E0.01228
G1 X168.087 Y106.601 E0.00651
G1 X167.780 Y106.845 E0.01228
G1 X167.431 Y107.033 E0.01243
G1 X167.054 Y107.155 E0.01243
G1 X166.662 Y107.209 E0.01243
G1 X166.270 Y107.191 E0.01228
G1 X166.066 Y107.154 E0.00651
G1 X165.697 Y107.034 E0.01216
G1 X165.345 Y106.845 E0.01254
G1 X165.038 Y106.601 E0.01229
G1 X164.892 Y106.448 E0.00663
G1 X164.665 Y106.134 E0.01216
G1 X164.493 Y105.777 E0.01243
G1 X164.387 Y105.395 E0.01243
G1 X164.359 Y105.086 E0.00973
G1 X164.006 Y104.829 F10800.000
G1 F8640
G1 X164.387 Y104.605 E-0.11114
G1 X164.493 Y104.223 E-0.09152
G1 X164.665 Y103.866 E-0.09152
G1 X164.895 Y103.549 E-0.09043
G1 X165.038 Y103.399 E-0.04797
G1 X165.345 Y103.155 E-0.09042
G1 X165.694 Y102.967 E-0.09153
G1 X166.071 Y102.845 E-0.09151
G1 X166.302 Y102.813 E-0.05394
G1 E-0.04000 F2100.00000
G1 Z0.800 F10800.000
G1 X111.982 Y101.959
G1 Z0.200
G1 E0.80000 F2100.00000
G1 F1200
G1 X169.554 Y101.964 E1.80514
G1 X169.582 Y101.973 E0.00093
G1 X169.602 Y102.023 E0.00168
G1 X169.594 Y108.005 E0.18758
G1 X169.576 Y108.030 E0.00095
G1 X169.525 Y108.041 E0.00166
G1 X111.982 Y108.041 E1.80422
G1 X111.970 Y111.260 E0.10091
G1 X111.929 Y111.286 E0.00152
G1 X87.025 Y111.291 E0.78086
G1 X87.025 Y109.087 E0.06911
G1 X93.525 Y109.087 E0.20380
G1 X93.525 Y100.913 E0.25629
G1 X87.025 Y100.913 E0.20380
G1 X87.025 Y98.709 E0.06911
G1 X111.903 Y98.709 E0.78006
G1 X111.970 Y98.740 E0.00230
G1 X111.981 Y101.899 E0.09903
G1 X112.357 Y101.582 F10800.000
G1 F1200
G1 X169.614 Y101.587 E1.79523
G1 X169.764 Y101.636 E0.00496
G1 X169.847 Y101.696 E0.00321
G1 X169.937 Y101.820 E0.00481
G1 X169.979 Y101.972 E0.00495
G1 X169.971 Y108.074 E0.19133
G1 X169.918 Y108.217 E0.00479
G1 X169.851 Y108.300 E0.00334
G1 X169.726 Y108.382 E0.00468
G1 X169.567 Y108.418 E0.00512
G1 X112.357 Y108.418 E1.79377
G1 X112.347 Y111.329 E0.09125
G1 X112.315 Y111.426 E0.00322
G1 X112.222 Y111.554 E0.00496
G1 X112.139 Y111.614 E0.00321
G1 X111.989 Y111.663 E0.00496
G1 X86.647 Y111.668 E0.79455
G1 X86.647 Y108.710 E0.09276
G1 X93.147 Y108.710 E0.20380
G1 X93.147 Y101.290 E0.23265
G1 X86.647 Y101.290 E0.20380
G1 X86.647 Y98.332 E0.09276
G1 X111.946 Y98.332 E0.79323
G1 X112.101 Y98.368 E0.00496
G1 X112.225 Y98.450 E0.00466
G1 X112.315 Y98.574 E0.00481
G1 X112.347 Y98.671 E0.00322
G1 X112.357 Y101.522 E0.08937
G1 X112.359 Y101.982 F10800.000
G1 F8640
G1 X115.649 Y101.525 E-0.76000
G1 E-0.04000 F2100.00000
G1 Z0.800 F10800.000
G1 X111.858 Y99.233
G1 Z0.200
G1 E0.80000 F2100.00000
G1 F1200
G1 X111.617 Y98.992 E0.01076
G1 X111.081 Y98.992 E0.01688
G1 X111.690 Y99.601 E0.02714
G1 X111.692 Y100.139 E0.01694
G1 X110.545 Y98.992 E0.05110
G1 X110.009 Y98.992 E0.01688
G1 X111.694 Y100.677 E0.07506
G1 X111.696 Y101.214 E0.01694
G1 X109.474 Y98.992 E0.09902
G1 X108.938 Y98.992 E0.01688
G1 X111.698 Y101.752 E0.12298
G1 X111.700 Y102.241 E0.01541
G1 X112.187 Y102.241 E0.01536
G1 X117.704 Y107.759 E0.24580
G1 X118.240 Y107.759 E0.01688
G1 X112.723 Y102.241 E0.24580
G1 X113.259 Y102.242 E0.01688
G1 X118.776 Y107.759 E0.24580
G1 X119.312 Y107.759 E0.01688
G1 X113.795 Y102.242 E0.24580
G1 X114.331 Y102.242 E0.01688
G1 X119.848 Y107.759 E0.24579
G1 X120.384 Y107.759 E0.01688
G1 X114.867 Y102.242 E0.24579
G1 X115.403 Y102.242 E0.01688
G1 X120.919 Y107.759 E0.24579
G1 X121.455 Y107.759 E0.01688
G1 X115.938 Y102.242 E0.24579
G1 X116.474 Y102.242 E0.01688
G1 X121.991 Y107.759 E0.24579
G1 X122.527 Y107.759 E0.01688
G1 X117.010 Y102.242 E0.24578
G1 X117.546 Y102.242 E0.01688
G1 X123.063 Y107.759 E0.24578
G1 X123.598 Y107.759 E0.01688
G1 X118.082 Y102.242 E0.24578
G1 X118.618 Y102.242 E0.01688
G1 X124.134 Y107.759 E0.24578
G1 X124.670 Y107.759 E0.01688
G1 X119.154 Y102.242 E0.24578
G1 X119.689 Y102.242 E0.01688
G1 X125.206 Y107.759 E0.24577
G1 X125.742 Y107.759 E0.01688
G1 X120.225 Y102.242 E0.24577
G1 X120.761 Y102.242 E0.01688
G1 X126.277 Y107.759 E0.24577
G1 X126.813 Y107.759 E0.01688
G1 X121.297 Y102.242 E0.24577
G1 X121.833 Y102.242 E0.01688
G1 X127.349 Y107.759 E0.24576
G1 X127.885 Y107.759 E0.01688
G1 X122.369 Y102.242 E0.24576
G1 X122.905 Y102.242 E0.01688
G1 X128.421 Y107.759 E0.24576
G1 X128.957 Y107.759 E0.01688
G1 X123.440 Y102.242 E0.24576
G1 X123.976 Y102.242 E0.01688
G1 X129.492 Y107.759 E0.24576
G1 X130.028 Y107.759 E0.01688
G1 X124.512 Y102.243 E0.24575
G1 X125.048 Y102.243 E0.01688
G1 X130.564 Y107.759 E0.24575
G1 X131.100 Y107.759 E0.01688
G1 X125.584 Y102.243 E0.24575
G1 X126.120 Y102.243 E0.01688
G1 X131.636 Y107.759 E0.24575
G1 X132.171 Y107.759 E0.01688
G1 X126.656 Y102.243 E0.24575
G1 X127.191 Y102.243 E0.01688
G1 X132.707 Y107.759 E0.24574
G1 X133.243 Y107.759 E0.01688
G1 X127.727 Y102.243 E0.24574
G1 X128.263 Y102.243 E0.01688
G1 X133.779 Y107.759 E0.24574
G1 X134.315 Y107.759 E0.01688
G1 X128.799 Y102.243 E0.24574
G1 X129.335 Y102.243 E0.01688
G1 X134.850 Y107.759 E0.24573
G1 X135.386 Y107.759 E0.01688
G1 X129.871 Y102.243 E0.24573
G1 X130.407 Y102.243 E0.01688
G1 X135.922 Y107.759 E0.24573
G1 X136.458 Y107.759 E0.01688
G1 X130.942 Y102.243 E0.24573
M73 Q2 S35
G1 X131.478 Y102.243 E0.01688
G1 X136.994 Y107.759 E0.24573
G1 X137.529 Y107.759 E0.01688
G1 X132.014 Y102.243 E0.24572
M73 P3 R34
G1 X132.550 Y102.243 E0.01688
G1 X138.065 Y107.759 E0.24572
G1 X138.601 Y107.759 E0.01688
G1 X133.086 Y102.243 E0.24572
G1 X133.622 Y102.243 E0.01688
G1 X139.137 Y107.759 E0.24572
G1 X139.673 Y107.759 E0.01688
G1 X134.158 Y102.243 E0.24572
G1 X134.693 Y102.243 E0.01688
G1 X140.209 Y107.759 E0.24571
G1 X140.744 Y107.759 E0.01688
G1 X135.229 Y102.243 E0.24571
G1 X135.765 Y102.244 E0.01688
G1 X141.280 Y107.759 E0.24571
G1 X141.816 Y107.759 E0.01688
G1 X136.301 Y102.244 E0.24571
G1 X136.837 Y102.244 E0.01688
G1 X142.352 Y107.759 E0.24571
G1 X142.888 Y107.759 E0.01688
G1 X137.373 Y102.244 E0.24570
G1 X137.909 Y102.244 E0.01688
G1 X143.423 Y107.759 E0.24570
G1 X143.959 Y107.759 E0.01688
G1 X138.444 Y102.244 E0.24570
G1 X138.980 Y102.244 E0.01688
G1 X144.495 Y107.759 E0.24570
G1 X145.031 Y107.759 E0.01688
G1 X139.516 Y102.244 E0.24569
G1 X140.052 Y102.244 E0.01688
G1 X145.567 Y107.759 E0.24569
G1 X146.102 Y107.759 E0.01688
G1 X140.588 Y102.244 E0.24569
G1 X141.124 Y102.244 E0.01688
G1 X146.638 Y107.759 E0.24569
G1 X147.174 Y107.759 E0.01688
G1 X141.660 Y102.244 E0.24569
G1 X142.195 Y102.244 E0.01688
G1 X147.710 Y107.759 E0.24568
G1 X148.246 Y107.759 E0.01688
G1 X142.731 Y102.244 E0.24568
G1 X143.267 Y102.244 E0.01688
G1 X148.782 Y107.759 E0.24568
G1 X149.317 Y107.759 E0.01688
G1 X143.803 Y102.244 E0.24568
G1 X144.339 Y102.244 E0.01688
G1 X149.853 Y107.759 E0.24568
G1 X150.389 Y107.759 E0.01688
G1 X144.875 Y102.244 E0.24567
G1 X145.411 Y102.244 E0.01688
G1 X150.925 Y107.759 E0.24567
G1 X151.461 Y107.759 E0.01688
G1 X145.946 Y102.244 E0.24567
G1 X146.482 Y102.244 E0.01688
G1 X151.996 Y107.759 E0.24567
G1 X152.532 Y107.759 E0.01688
G1 X147.018 Y102.245 E0.24567
G1 X147.554 Y102.245 E0.01688
G1 X153.068 Y107.759 E0.24566
G1 X153.604 Y107.759 E0.01688
G1 X148.090 Y102.245 E0.24566
G1 X148.626 Y102.245 E0.01688
G1 X154.140 Y107.759 E0.24566
G1 X154.675 Y107.759 E0.01688
G1 X149.162 Y102.245 E0.24566
G1 X149.698 Y102.245 E0.01688
G1 X155.211 Y107.759 E0.24565
G1 X155.747 Y107.759 E0.01688
G1 X150.233 Y102.245 E0.24565
G1 X150.769 Y102.245 E0.01688
G1 X156.283 Y107.759 E0.24565
G1 X156.819 Y107.759 E0.01688
G1 X151.305 Y102.245 E0.24565
G1 X151.841 Y102.245 E0.01688
G1 X157.355 Y107.759 E0.24565
G1 X157.890 Y107.759 E0.01688
G1 X152.377 Y102.245 E0.24564
G1 X152.913 Y102.245 E0.01688
G1 X158.426 Y107.759 E0.24564
G1 X158.962 Y107.759 E0.01688
G1 X153.449 Y102.245 E0.24564
G1 X153.984 Y102.245 E0.01688
G1 X159.498 Y107.759 E0.24564
G1 X160.034 Y107.759 E0.01688
G1 X154.520 Y102.245 E0.24564
G1 X155.056 Y102.245 E0.01688
G1 X160.569 Y107.759 E0.24563
G1 X161.105 Y107.759 E0.01688
G1 X155.592 Y102.245 E0.24563
G1 X156.128 Y102.245 E0.01688
G1 X161.641 Y107.759 E0.24563
G1 X162.177 Y107.759 E0.01688
G1 X156.664 Y102.245 E0.24563
G1 X157.200 Y102.245 E0.01688
G1 X162.713 Y107.759 E0.24562
G1 X163.248 Y107.759 E0.01688
G1 X157.735 Y102.245 E0.24562
G1 X158.271 Y102.246 E0.01688
G1 X163.784 Y107.759 E0.24562
G1 X164.320 Y107.759 E0.01688
G1 X158.807 Y102.246 E0.24562
G1 X159.343 Y102.246 E0.01688
G1 X164.856 Y107.759 E0.24562
G1 X165.165 Y107.759 E0.00975
G1 X165.196 Y107.563 E0.00623
G1 X159.879 Y102.246 E0.23691
G1 X160.415 Y102.246 E0.01688
G1 X163.756 Y105.587 E0.14884
G1 X163.690 Y104.986 E0.01904
G1 X160.951 Y102.246 E0.12207
G1 X161.486 Y102.246 E0.01688
G1 X163.735 Y104.494 E0.10016
G1 X163.849 Y104.073 E0.01375
G1 X162.022 Y102.246 E0.08141
G1 X162.558 Y102.246 E0.01688
G1 X164.012 Y103.700 E0.06478
G1 X164.096 Y103.526 E0.00608
G1 X164.213 Y103.365 E0.00628
G1 X163.094 Y102.246 E0.04986
G1 X163.630 Y102.246 E0.01688
G1 X164.447 Y103.063 E0.03640
G1 X164.592 Y102.911 E0.00663
G1 X164.725 Y102.805 E0.00534
G1 X164.166 Y102.246 E0.02491
G1 X164.702 Y102.246 E0.01688
G1 X165.155 Y102.700 E0.02022
G1 X165.450 Y102.298 F10800.000
G1 F1200
G1 X165.922 Y102.223 E0.00711
G1 X166.439 Y102.188 E0.00312
G1 X166.926 Y102.199 E0.00382
G1 X167.068 Y102.212 E0.00142
G1 X167.220 Y102.226 E0.00187
G1 X167.372 Y102.250 E0.00233
G1 X167.523 Y102.274 E0.00277
G1 X167.674 Y102.298 E0.00321
G1 F8640
G1 X167.523 Y102.274 E-0.03540
G1 E-0.76460 F2100.00000
G1 Z0.800 F10800.000
G1 X169.488 Y102.926
G1 Z0.200
G1 E0.80000 F2100.00000
G1 F1200
