; generated by PrusaSlicer 2.1.0+ on 2019-11-01 at 17:47:44 UTC

; 

; external perimeters extrusion width = 0.45mm
; perimeters extrusion width = 0.45mm
; infill extrusion width = 0.45mm
; solid infill extrusion width = 0.45mm
; top infill extrusion width = 0.40mm
; first layer extrusion width = 0.42mm

M73 P0 R25
M73 Q0 S25
M201 X1000 Y1000 Z1000 E5000 ; sets maximum accelerations, mm/sec^2
M203 X200 Y200 Z12 E120 ; sets maximum feedrates, mm/sec
M204 P1250 R1250 T1250 ; sets acceleration (P, T) and retract acceleration (R), mm/sec^2
M205 X8.00 Y8.00 Z0.40 E1.50 ; sets the jerk limits, mm/sec
M205 S0 T0 ; sets the minimum extruding and travel feed rate, mm/sec
M107
M862.3 P "MK3S" ; printer model check
M862.1 P0.4 ; nozzle diameter check
M115 U3.8.0 ; tell printer latest fw version
G90 ; use absolute coordinates
M83 ; extruder relative mode
M104 S215 ; set extruder temp
M140 S60 ; set bed temp
M190 S60 ; wait for bed temp
M109 S215 ; wait for extruder temp
G28 W ; home all without mesh bed level
G80 ; mesh bed leveling
G1 Y-3.0 F1000.0 ; go outside print area
G92 E0.0
G1 X60.0 E9.0 F1000.0 ; intro line
M73 Q0 S25
M73 P0 R25
G1 X100.0 E12.5 F1000.0 ; intro line
G92 E0.0
M221 S95
G21 ; set units to millimeters
G90 ; use absolute coordinates
M83 ; use relative distances for extrusion
M900 K30 ; Filament gcode
;BEFORE_LAYER_CHANGE
G92 E0.0
;0.2


G1 E-0.80000 F2100.00000
G1 Z0.600 F10800.000
;AFTER_LAYER_CHANGE
;0.2
G1 X108.635 Y80.384
G1 Z0.200
G1 E0.80000 F2100.00000
M204 S1000
G1 F1200
G1 X109.461 Y79.547 E0.03688
G1 X110.446 Y78.989 E0.03550
G1 X111.068 Y78.794 E0.02044
G1 X111.718 Y78.699 E0.02059
G1 X138.004 Y78.689 E0.82418
G1 X138.751 Y78.756 E0.02353
G1 X139.475 Y78.957 E0.02357
G1 X140.148 Y79.282 E0.02344
G1 X140.759 Y79.726 E0.02367
G1 X141.270 Y80.260 E0.02319
G1 X141.691 Y80.896 E0.02390
G1 X141.985 Y81.587 E0.02354
G1 X142.152 Y82.329 E0.02386
G1 X142.188 Y107.899 E0.80172
G1 X142.118 Y108.639 E0.02332
G1 X141.897 Y109.408 E0.02507
G1 X133.998 Y127.760 E0.62646
G1 X133.726 Y128.213 E0.01658
G1 X133.353 Y128.588 E0.01658
G1 X132.735 Y128.929 E0.02213
G1 X132.041 Y129.056 E0.02213
G1 X117.974 Y129.057 E0.44104
G1 X117.160 Y128.889 E0.02608
G1 X116.479 Y128.442 E0.02552
G1 X116.011 Y127.781 E0.02541
G1 X108.146 Y109.519 E0.62343
G1 X107.902 Y108.737 E0.02569
G1 X107.811 Y107.885 E0.02684
G1 X107.812 Y82.863 E0.78458
G1 X107.883 Y82.109 E0.02373
G1 X108.104 Y81.342 E0.02502
G1 X108.605 Y80.437 E0.03246
G1 F8640
G1 X109.461 Y79.547 E-0.28499
G1 X110.446 Y78.989 E-0.26141
G1 X111.068 Y78.794 E-0.15051
G1 X111.338 Y78.754 E-0.06309
G1 E-0.04000 F2100.00000
G1 Z0.800 F10800.000
G1 X119.913 Y92.790
G1 Z0.200
G1 E0.80000 F2100.00000
G1 F1200
G1 X130.087 Y92.790 E0.31900
G1 X130.087 Y102.964 E0.31900
G1 X119.913 Y102.964 E0.31900
G1 X119.913 Y92.850 E0.31712
G1 X120.290 Y93.167 F10800.000
G1 F1200
G1 X129.710 Y93.167 E0.29536
G1 X129.710 Y102.587 E0.29536
G1 X120.290 Y102.587 E0.29536
G1 X120.290 Y93.227 E0.29348
G1 X120.186 Y92.781 F10800.000
G1 F8640
G1 X123.581 Y93.206 E-0.76000
G1 E-0.04000 F2100.00000
G1 Z0.800 F10800.000
G1 X131.413 Y109.290
G1 Z0.200
G1 E0.80000 F2100.00000
G1 F1200
G1 X131.413 Y125.188 E0.49846
G1 X130.587 Y125.188 E0.02589
G1 X130.587 Y109.290 E0.49846
G1 X119.413 Y109.290 E0.35036
G1 X119.413 Y125.188 E0.49846
G1 X118.587 Y125.188 E0.02589
G1 X118.587 Y109.290 E0.49846
G1 X112.026 Y109.290 E0.20571
G1 X111.748 Y109.265 E0.00876
G1 X111.504 Y109.198 E0.00793
G1 X111.265 Y109.082 E0.00834
G1 X110.981 Y108.852 E0.01148
G1 X110.823 Y108.654 E0.00793
G1 X110.703 Y108.432 E0.00793
G1 X110.602 Y108.073 E0.01167
G1 X110.587 Y107.857 E0.00679
G1 X110.587 Y82.903 E0.78241
G1 X110.612 Y82.625 E0.00876
G1 X110.728 Y82.264 E0.01188
G1 X110.938 Y81.949 E0.01188
G1 X111.130 Y81.765 E0.00834
G1 X111.457 Y81.574 E0.01188
G1 X111.564 Y81.534 E0.00356
G1 X111.950 Y81.466 E0.01230
G1 X137.976 Y81.464 E0.81602
G1 X138.265 Y81.490 E0.00910
G1 X138.612 Y81.606 E0.01147
G1 X138.829 Y81.736 E0.00793
G1 X139.020 Y81.902 E0.00793
G1 X139.177 Y82.100 E0.00793
G1 X139.297 Y82.323 E0.00793
G1 X139.375 Y82.563 E0.00793
G1 X139.411 Y82.827 E0.00835
G1 X139.413 Y107.851 E0.78460
G1 X139.388 Y108.129 E0.00876
G1 X139.317 Y108.385 E0.00834
G1 X139.134 Y108.718 E0.01189
G1 X138.879 Y108.980 E0.01147
G1 X138.567 Y109.170 E0.01147
G1 X138.196 Y109.276 E0.01209
G1 X137.980 Y109.290 E0.00679
G1 X131.473 Y109.290 E0.20403
G1 X131.790 Y109.667 F10800.000
G1 F1200
G1 X131.790 Y125.565 E0.49846
G1 X130.210 Y125.565 E0.04954
G1 X130.210 Y109.667 E0.49846
G1 X119.790 Y109.667 E0.32671
G1 X119.790 Y125.565 E0.49846
G1 X118.210 Y125.565 E0.04954
G1 X118.210 Y109.667 E0.49846
G1 X112.009 Y109.667 E0.19441
G1 X111.681 Y109.638 E0.01035
G1 X111.371 Y109.552 E0.01006
G1 X111.078 Y109.411 E0.01020
G1 X110.950 Y109.326 E0.00481
G1 X110.707 Y109.114 E0.01014
G1 X110.507 Y108.863 E0.01006
G1 X110.355 Y108.580 E0.01006
G1 X110.254 Y108.271 E0.01021
G1 X110.227 Y108.120 E0.00481
G1 X110.210 Y107.870 E0.00785
G1 X110.210 Y82.887 E0.78334
G1 X110.240 Y82.558 E0.01035
G1 X110.326 Y82.244 E0.01020
G1 X110.387 Y82.101 E0.00489
G1 X110.461 Y81.963 E0.00489
G1 X110.653 Y81.700 E0.01021
G1 X110.888 Y81.475 E0.01020
G1 X111.010 Y81.386 E0.00474
G1 X111.301 Y81.230 E0.01035
G1 X111.447 Y81.175 E0.00489
G1 X111.597 Y81.133 E0.00489
G1 X111.924 Y81.089 E0.01035
G1 X137.993 Y81.087 E0.81735
G1 X138.324 Y81.117 E0.01043
G1 X138.472 Y81.151 E0.00474
G1 X138.776 Y81.265 E0.01021
G1 X139.052 Y81.430 E0.01006
G1 X139.293 Y81.641 E0.01006
G1 X139.493 Y81.892 E0.01006
G1 X139.645 Y82.174 E0.01006
G1 X139.744 Y82.479 E0.01006
G1 X139.788 Y82.802 E0.01021
G1 X139.790 Y107.868 E0.78593
G1 X139.760 Y108.197 E0.01035
G1 X139.674 Y108.510 E0.01020
G1 X139.614 Y108.649 E0.00474
G1 X139.445 Y108.933 E0.01035
G1 X139.351 Y109.051 E0.00474
G1 X139.116 Y109.276 E0.01020
G1 X138.844 Y109.455 E0.01021
G1 X138.708 Y109.521 E0.00474
G1 X138.394 Y109.623 E0.01036
G1 X137.993 Y109.667 E0.01264
G1 X131.850 Y109.667 E0.19261
G1 X131.390 Y109.668 F10800.000
G1 F8640
G1 X131.838 Y112.959 E-0.76000
G1 E-0.04000 F2100.00000
G1 Z0.800 F10800.000
G1 X130.433 Y109.177
G1 Z0.200
G1 E0.80000 F2100.00000
G1 F1200
G1 X124.503 Y103.247 E0.26491
G1 X123.966 Y103.247 E0.01697
G1 X129.726 Y109.007 E0.25733
G1 X129.189 Y109.007 E0.01697
G1 X123.429 Y103.247 E0.25733
G1 X122.891 Y103.247 E0.01697
G1 X128.652 Y109.007 E0.25733
G1 X128.114 Y109.007 E0.01697
G1 X122.354 Y103.247 E0.25733
G1 X121.817 Y103.247 E0.01697
G1 X127.577 Y109.007 E0.25733
G1 X127.040 Y109.007 E0.01697
G1 X121.280 Y103.247 E0.25733
G1 X120.742 Y103.247 E0.01697
G1 X126.503 Y109.007 E0.25733
G1 X125.965 Y109.007 E0.01697
G1 X120.035 Y103.077 E0.26491
G1 F8640
G1 X122.363 Y105.405 E-0.76000
G1 E-0.04000 F2100.00000
G1 Z0.800 F10800.000
G1 X118.614 Y109.177
G1 Z0.200
G1 E0.80000 F2100.00000
G1 F1200
G1 X110.870 Y101.433 E0.34593
G1 X110.870 Y101.970 E0.01697
G1 X117.907 Y109.007 E0.31435
G1 X117.369 Y109.007 E0.01697
G1 X110.870 Y102.508 E0.29035
G1 X110.870 Y103.045 E0.01697
G1 X116.832 Y109.007 E0.26635
G1 X116.295 Y109.007 E0.01697
G1 X110.870 Y103.582 E0.24235
G1 X110.870 Y104.119 E0.01697
G1 X115.758 Y109.007 E0.21835
G1 X115.220 Y109.007 E0.01697
G1 X110.870 Y104.657 E0.19435
G1 X110.870 Y105.194 E0.01697
G1 X114.683 Y109.007 E0.17035
G1 X114.146 Y109.007 E0.01697
G1 X110.870 Y105.731 E0.14635
G1 X110.870 Y106.268 E0.01697
G1 X113.609 Y109.007 E0.12235
G1 X113.071 Y109.007 E0.01697
G1 X110.870 Y106.806 E0.09835
G1 X110.870 Y107.343 E0.01697
G1 X112.534 Y109.007 E0.07435
G1 X111.993 Y109.003 E0.01710
G1 X110.700 Y107.711 E0.05774
G1 F8640
G1 X111.993 Y109.003 E-0.42210
G1 X112.534 Y109.007 E-0.12502
G1 X111.882 Y108.355 E-0.21288
G1 E-0.04000 F2100.00000
G1 Z0.800 F10800.000
G1 X118.700 Y124.307
G1 Z0.200
G1 E0.80000 F2100.00000
G1 F1200
G1 X119.130 Y124.736 E0.01921
G1 X119.130 Y124.199 E0.01697
G1 X118.870 Y123.939 E0.01163
G1 X118.870 Y123.402 E0.01697
G1 X119.130 Y123.662 E0.01163
G1 X119.130 Y123.125 E0.01697
G1 X118.870 Y122.864 E0.01163
G1 X118.870 Y122.327 E0.01697
G1 X119.130 Y122.587 E0.01163
G1 X119.130 Y122.050 E0.01697
G1 X118.870 Y121.790 E0.01163
G1 X118.870 Y121.253 E0.01697
G1 X119.130 Y121.513 E0.01163
G1 X119.130 Y120.976 E0.01697
G1 X118.870 Y120.715 E0.01163
G1 X118.870 Y120.178 E0.01697
G1 X119.130 Y120.438 E0.01163
G1 X119.130 Y119.901 E0.01697
G1 X118.870 Y119.641 E0.01163
G1 X118.870 Y119.104 E0.01697
G1 X119.130 Y119.364 E0.01163
G1 X119.130 Y118.827 E0.01697
G1 X118.870 Y118.566 E0.01163
G1 X118.870 Y118.029 E0.01697
G1 X119.130 Y118.289 E0.01163
G1 X119.130 Y117.752 E0.01697
G1 X118.870 Y117.492 E0.01163
G1 X118.870 Y116.955 E0.01697
G1 X119.130 Y117.215 E0.01163
G1 X119.130 Y116.678 E0.01697
G1 X118.870 Y116.417 E0.01163
G1 X118.870 Y115.880 E0.01697
G1 X119.130 Y116.140 E0.01163
G1 X119.130 Y115.603 E0.01697
G1 X118.870 Y115.343 E0.01163
G1 X118.870 Y114.806 E0.01697
G1 X119.130 Y115.066 E0.01163
G1 X119.130 Y114.529 E0.01697
G1 X118.870 Y114.268 E0.01163
G1 X118.870 Y113.731 E0.01697
G1 X119.130 Y113.991 E0.01163
G1 X119.130 Y113.454 E0.01697
G1 X118.870 Y113.194 E0.01163
G1 X118.870 Y112.657 E0.01697
G1 X119.130 Y112.917 E0.01163
G1 X119.130 Y112.380 E0.01697
G1 X118.870 Y112.119 E0.01163
G1 X118.870 Y111.582 E0.01697
G1 X119.130 Y111.842 E0.01163
G1 X119.130 Y111.305 E0.01697
G1 X118.870 Y111.045 E0.01163
G1 X118.870 Y110.508 E0.01697
G1 X119.130 Y110.768 E0.01163
G1 X119.130 Y110.231 E0.01697
G1 X118.870 Y109.970 E0.01163
G1 X118.870 Y109.433 E0.01697
G1 X119.130 Y109.693 E0.01163
G1 X119.130 Y109.156 E0.01697
G1 X110.870 Y100.896 E0.36901
G1 X110.870 Y100.359 E0.01697
G1 X119.518 Y109.007 E0.38635
G1 X120.056 Y109.007 E0.01697
G1 X110.870 Y99.821 E0.41035
G1 X110.870 Y99.284 E0.01697
G1 X120.593 Y109.007 E0.43435
G1 X121.130 Y109.007 E0.01697
G1 X110.870 Y98.747 E0.45836
G1 X110.870 Y98.210 E0.01697
G1 X121.667 Y109.007 E0.48236
G1 X122.205 Y109.007 E0.01697
G1 X110.870 Y97.672 E0.50636
G1 X110.870 Y97.135 E0.01697
G1 X122.742 Y109.007 E0.53036
G1 X123.279 Y109.007 E0.01697
G1 X110.870 Y96.598 E0.55436
G1 X110.870 Y96.061 E0.01697
G1 X123.816 Y109.007 E0.57836
G1 X124.354 Y109.007 E0.01697
G1 X110.870 Y95.523 E0.60236
G1 X110.870 Y94.986 E0.01697
G1 X124.891 Y109.007 E0.62636
G1 X125.428 Y109.007 E0.01697
G1 X110.870 Y94.449 E0.65036
G1 X110.870 Y93.912 E0.01697
G1 X119.630 Y102.672 E0.39134
G1 X119.630 Y102.135 E0.01697
G1 X110.870 Y93.374 E0.39134
G1 X110.870 Y92.837 E0.01697
G1 X119.630 Y101.597 E0.39134
G1 X119.630 Y101.060 E0.01697
G1 X110.870 Y92.300 E0.39134
G1 X110.870 Y91.763 E0.01697
G1 X119.630 Y100.523 E0.39134
G1 X119.630 Y99.986 E0.01697
G1 X110.870 Y91.225 E0.39134
M73 Q4 S24
M73 P4 R24
G1 X110.870 Y90.688 E0.01697
G1 X119.630 Y99.448 E0.39134
G1 X119.630 Y98.911 E0.01697
G1 X110.870 Y90.151 E0.39134
G1 X110.870 Y89.614 E0.01697
G1 X119.630 Y98.374 E0.39134
G1 X119.630 Y97.837 E0.01697
G1 X110.870 Y89.076 E0.39134
G1 X110.870 Y88.539 E0.01697
G1 X119.630 Y97.299 E0.39134
G1 X119.630 Y96.762 E0.01697
G1 X110.870 Y88.002 E0.39134
G1 X110.870 Y87.465 E0.01697
G1 X119.630 Y96.225 E0.39134
G1 X119.630 Y95.688 E0.01697
G1 X110.870 Y86.927 E0.39134
G1 X110.870 Y86.390 E0.01697
G1 X119.630 Y95.150 E0.39134
G1 X119.630 Y94.613 E0.01697
G1 X110.870 Y85.853 E0.39134
G1 X110.870 Y85.316 E0.01697
G1 X119.630 Y94.076 E0.39134
G1 X119.630 Y93.539 E0.01697
G1 X110.870 Y84.778 E0.39134
G1 X110.870 Y84.241 E0.01697
G1 X119.630 Y93.001 E0.39134
G1 X119.630 Y92.507 E0.01561
G1 X119.673 Y92.507 E0.00136
G1 X110.870 Y83.704 E0.39327
G1 X110.870 Y83.167 E0.01697
G1 X120.210 Y92.507 E0.41727
G1 X120.748 Y92.507 E0.01697
G1 X110.899 Y82.658 E0.43999
G1 X110.985 Y82.388 E0.00895
G1 X111.057 Y82.280 E0.00413
G1 X121.285 Y92.507 E0.45690
G1 X121.822 Y92.507 E0.01697
G1 X111.311 Y81.996 E0.46957
G1 X111.370 Y81.943 E0.00250
G1 X111.657 Y81.805 E0.01006
G1 X122.359 Y92.507 E0.47811
G1 X122.897 Y92.507 E0.01697
G1 X112.138 Y81.749 E0.48060
G1 X112.676 Y81.749 E0.01697
G1 X123.434 Y92.507 E0.48060
G1 X123.971 Y92.507 E0.01697
G1 X113.213 Y81.749 E0.48060
G1 X113.750 Y81.749 E0.01697
G1 X124.508 Y92.507 E0.48060
G1 X125.046 Y92.507 E0.01697
G1 X114.287 Y81.749 E0.48061
G1 X114.824 Y81.749 E0.01697
G1 X125.583 Y92.507 E0.48061
G1 X126.120 Y92.507 E0.01697
G1 X115.362 Y81.749 E0.48061
G1 X115.899 Y81.749 E0.01697
G1 X126.657 Y92.507 E0.48061
G1 X127.195 Y92.507 E0.01697
G1 X116.436 Y81.749 E0.48061
G1 X116.973 Y81.749 E0.01697
G1 X127.732 Y92.507 E0.48062
G1 X128.269 Y92.507 E0.01697
G1 X117.511 Y81.749 E0.48062
G1 X118.048 Y81.749 E0.01697
G1 X128.806 Y92.507 E0.48062
G1 X129.344 Y92.507 E0.01697
G1 X118.585 Y81.749 E0.48062
G1 X119.122 Y81.748 E0.01697
G1 X130.051 Y92.677 E0.48820
G1 F8640
G1 X127.723 Y90.350 E-0.76000
G1 E-0.04000 F2100.00000
G1 Z0.800 F10800.000
G1 X139.246 Y82.531
G1 Z0.200
G1 E0.80000 F2100.00000
G1 F1200
G1 X138.806 Y82.091 E0.01965
G1 X138.662 Y81.966 E0.00603
G1 X138.493 Y81.865 E0.00621
G1 X138.207 Y81.769 E0.00955
G1 X137.925 Y81.747 E0.00894
G1 X139.128 Y82.951 E0.05377
G1 X139.128 Y83.488 E0.01697
G1 X137.387 Y81.747 E0.07777
G1 X136.850 Y81.747 E0.01697
G1 X139.128 Y84.025 E0.10177
G1 X139.128 Y84.563 E0.01697
G1 X136.313 Y81.747 E0.12577
G1 X135.776 Y81.747 E0.01697
G1 X139.128 Y85.100 E0.14977
G1 X139.128 Y85.637 E0.01697
G1 X135.238 Y81.747 E0.17377
G1 X134.701 Y81.747 E0.01697
G1 X139.128 Y86.174 E0.19777
G1 X139.128 Y86.712 E0.01697
G1 X134.164 Y81.747 E0.22177
G1 X133.627 Y81.747 E0.01697
G1 X139.128 Y87.249 E0.24577
G1 X139.129 Y87.786 E0.01697
G1 X133.090 Y81.747 E0.26977
G1 X132.552 Y81.748 E0.01697
G1 X139.129 Y88.324 E0.29377
G1 X139.129 Y88.861 E0.01697
G1 X132.015 Y81.748 E0.31777
G1 X131.478 Y81.748 E0.01697
G1 X139.129 Y89.398 E0.34177
G1 X139.129 Y89.936 E0.01697
G1 X130.941 Y81.748 E0.36577
G1 X130.404 Y81.748 E0.01697
G1 X139.129 Y90.473 E0.38978
G1 X139.129 Y91.010 E0.01697
G1 X129.866 Y81.748 E0.41378
G1 X129.329 Y81.748 E0.01697
G1 X139.129 Y91.547 E0.43778
G1 X139.129 Y92.085 E0.01697
G1 X128.792 Y81.748 E0.46178
G1 X128.255 Y81.748 E0.01697
G1 X139.129 Y92.622 E0.48578
G1 X139.129 Y93.159 E0.01697
G1 X127.718 Y81.748 E0.50978
G1 X127.180 Y81.748 E0.01697
G1 X139.129 Y93.697 E0.53378
G1 X139.129 Y94.234 E0.01697
G1 X126.643 Y81.748 E0.55778
G1 X126.106 Y81.748 E0.01697
G1 X139.129 Y94.771 E0.58178
G1 X139.129 Y95.308 E0.01697
G1 X125.569 Y81.748 E0.60578
G1 X125.031 Y81.748 E0.01697
G1 X139.129 Y95.846 E0.62978
G1 X139.129 Y96.383 E0.01697
G1 X124.494 Y81.748 E0.65378
G1 X123.957 Y81.748 E0.01697
G1 X139.129 Y96.920 E0.67778
G1 X139.129 Y97.458 E0.01697
G1 X123.420 Y81.748 E0.70178
G1 X122.883 Y81.748 E0.01697
G1 X139.129 Y97.995 E0.72578
G1 X139.129 Y98.532 E0.01697
G1 X122.345 Y81.748 E0.74978
G1 X121.808 Y81.748 E0.01697
G1 X139.129 Y99.070 E0.77378
G1 X139.129 Y99.607 E0.01697
G1 X121.271 Y81.748 E0.79778
G1 X120.734 Y81.748 E0.01697
G1 X139.130 Y100.144 E0.82178
G1 X139.130 Y100.681 E0.01697
G1 X120.197 Y81.748 E0.84578
G1 X119.659 Y81.748 E0.01697
G1 X139.130 Y101.219 E0.86978
G1 X139.130 Y101.756 E0.01697
G1 X130.370 Y92.996 E0.39132
G1 X130.370 Y93.533 E0.01697
G1 X139.130 Y102.293 E0.39132
G1 X139.130 Y102.831 E0.01697
G1 X130.370 Y94.071 E0.39133
G1 X130.370 Y94.608 E0.01697
G1 X139.130 Y103.368 E0.39133
G1 X139.130 Y103.905 E0.01697
G1 X130.370 Y95.145 E0.39133
G1 X130.370 Y95.682 E0.01697
G1 X139.130 Y104.442 E0.39133
G1 X139.130 Y104.980 E0.01697
G1 X130.370 Y96.220 E0.39133
G1 X130.370 Y96.757 E0.01697
G1 X139.130 Y105.517 E0.39133
G1 X139.130 Y106.054 E0.01697
G1 X130.370 Y97.294 E0.39134
G1 X130.370 Y97.831 E0.01697
G1 X139.130 Y106.592 E0.39134
G1 X139.130 Y107.129 E0.01697
G1 X130.370 Y98.369 E0.39134
G1 X130.370 Y98.906 E0.01697
G1 X139.130 Y107.666 E0.39134
G1 X139.109 Y108.073 E0.01287
G1 X139.083 Y108.156 E0.00275
G1 X130.370 Y99.443 E0.38923
M73 Q8 S23
M73 P8 R23
G1 X130.370 Y99.980 E0.01697
G1 X138.918 Y108.529 E0.38186
G1 X138.702 Y108.757 E0.00994
G1 X138.644 Y108.792 E0.00212
G1 X130.370 Y100.518 E0.36964
G1 X130.370 Y101.055 E0.01697
G1 X138.274 Y108.959 E0.35311
G1 X138.147 Y108.995 E0.00416
