; generated by PrusaSlicer 2.1.0+ on 2019-11-01 at 17:46:58 UTC

; 

; external perimeters extrusion width = 0.45mm
; perimeters extrusion width = 0.45mm
; infill extrusion width = 0.45mm
; solid infill extrusion width = 0.45mm
; top infill extrusion width = 0.40mm
; first layer extrusion width = 0.42mm

M73 P0 R14
M73 Q0 S14
M201 X1000 Y1000 Z1000 E5000 ; sets maximum accelerations, mm/sec^2
M203 X200 Y200 Z12 E120 ; sets maximum feedrates, mm/sec
M204 P1250 R1250 T1250 ; sets acceleration (P, T) and retract acceleration (R), mm/sec^2
M205 X8.00 Y8.00 Z0.40 E1.50 ; sets the jerk limits, mm/sec
M205 S0 T0 ; sets the minimum extruding and travel feed rate, mm/sec
M107
M862.3 P "MK3S" ; printer model check
M862.1 P0.4 ; nozzle diameter check
M115 U3.8.0 ; tell printer latest fw version
G90 ; use absolute coordinates
M83 ; extruder relative mode
M104 S215 ; set extruder temp
M140 S60 ; set bed temp
M190 S60 ; wait for bed temp
M109 S215 ; wait for extruder temp
G28 W ; home all without mesh bed level
G80 ; mesh bed leveling
G1 Y-3.0 F1000.0 ; go outside print area
G92 E0.0
G1 X60.0 E9.0 F1000.0 ; intro line
M73 Q0 S14
M73 P0 R14
G1 X100.0 E12.5 F1000.0 ; intro line
G92 E0.0
M221 S95
G21 ; set units to millimeters
G90 ; use absolute coordinates
M83 ; use relative distances for extrusion
M900 K30 ; Filament gcode
;BEFORE_LAYER_CHANGE
G92 E0.0
;0.2


G1 E-0.80000 F2100.00000
G1 Z0.600 F10800.000
;AFTER_LAYER_CHANGE
;0.2
G1 X108.858 Y89.730
G1 Z0.200
G1 E0.80000 F2100.00000
M204 S1000
G1 F1200
G1 X109.452 Y89.176 E0.02546
G1 X110.267 Y88.688 E0.02978
G1 X111.039 Y88.423 E0.02560
G1 X111.805 Y88.316 E0.02425
G1 X138.004 Y88.311 E0.82143
G1 X138.751 Y88.379 E0.02353
G1 X139.479 Y88.581 E0.02368
G1 X140.155 Y88.908 E0.02355
G1 X140.773 Y89.361 E0.02401
G1 X141.281 Y89.897 E0.02318
G1 X141.696 Y90.530 E0.02373
G1 X141.992 Y91.231 E0.02386
G1 X142.160 Y92.018 E0.02523
G1 X142.187 Y117.580 E0.80148
G1 X142.117 Y118.273 E0.02181
G1 X141.912 Y118.996 E0.02356
G1 X141.590 Y119.658 E0.02309
G1 X141.142 Y120.270 E0.02379
G1 X140.539 Y120.830 E0.02580
G1 X139.693 Y121.331 E0.03081
G1 X138.904 Y121.590 E0.02606
G1 X138.027 Y121.688 E0.02767
G1 X111.920 Y121.687 E0.81857
G1 X111.224 Y121.616 E0.02193
G1 X110.504 Y121.412 E0.02345
G1 X109.842 Y121.090 E0.02309
G1 X109.230 Y120.642 E0.02379
G1 X108.670 Y120.039 E0.02580
G1 X108.169 Y119.193 E0.03081
G1 X107.910 Y118.404 E0.02606
G1 X107.812 Y117.527 E0.02766
G1 X107.813 Y92.416 E0.78733
G1 X107.883 Y91.733 E0.02153
G1 X108.088 Y91.004 E0.02373
G1 X108.410 Y90.342 E0.02309
G1 X108.823 Y89.778 E0.02190
G1 F8640
G1 X109.452 Y89.176 E-0.20110
G1 X110.267 Y88.688 E-0.21935
G1 X111.039 Y88.423 E-0.18856
G1 X111.687 Y88.333 E-0.15100
G1 E-0.04000 F2100.00000
G1 Z0.800 F10800.000
G1 X110.915 Y91.606
G1 Z0.200
G1 E0.80000 F2100.00000
G1 F1200
G1 X111.025 Y91.480 E0.00525
G1 X111.223 Y91.323 E0.00793
G1 X111.446 Y91.203 E0.00793
G1 X111.680 Y91.127 E0.00772
G1 X112.033 Y91.087 E0.01114
G1 X138.126 Y91.095 E0.81814
G1 X138.375 Y91.140 E0.00793
G1 X138.612 Y91.229 E0.00793
G1 X138.829 Y91.359 E0.00793
G1 X139.020 Y91.525 E0.00793
G1 X139.177 Y91.723 E0.00793
G1 X139.297 Y91.946 E0.00793
G1 X139.375 Y92.186 E0.00793
G1 X139.411 Y92.450 E0.00835
G1 X139.413 Y117.474 E0.78460
G1 X139.388 Y117.752 E0.00876
G1 X139.321 Y117.996 E0.00793
G1 X139.205 Y118.235 E0.00835
G1 X138.975 Y118.520 E0.01147
G1 X138.777 Y118.677 E0.00793
G1 X138.554 Y118.797 E0.00793
G1 X138.320 Y118.873 E0.00772
G1 X137.967 Y118.913 E0.01114
G1 X112.026 Y118.913 E0.81335
G1 X111.748 Y118.888 E0.00876
G1 X111.504 Y118.821 E0.00793
G1 X111.265 Y118.705 E0.00835
G1 X110.980 Y118.475 E0.01147
G1 X110.823 Y118.277 E0.00793
G1 X110.703 Y118.054 E0.00793
G1 X110.627 Y117.820 E0.00772
G1 X110.587 Y117.467 E0.01114
G1 X110.587 Y92.526 E0.78200
G1 X110.612 Y92.248 E0.00876
G1 X110.679 Y92.004 E0.00793
G1 X110.795 Y91.765 E0.00835
G1 X110.876 Y91.652 E0.00435
G1 X110.549 Y91.452 F10800.000
G1 F1200
G1 X110.764 Y91.207 E0.01021
G1 X111.014 Y91.007 E0.01006
G1 X111.297 Y90.855 E0.01006
G1 X111.600 Y90.756 E0.00998
G1 X112.012 Y90.710 E0.01300
G1 X138.160 Y90.718 E0.81987
G1 X138.476 Y90.775 E0.01006
G1 X138.776 Y90.888 E0.01006
G1 X139.052 Y91.053 E0.01006
G1 X139.293 Y91.264 E0.01006
G1 X139.493 Y91.514 E0.01006
G1 X139.645 Y91.797 E0.01006
G1 X139.744 Y92.102 E0.01006
G1 X139.788 Y92.424 E0.01021
G1 X139.790 Y117.491 E0.78593
G1 X139.760 Y117.819 E0.01035
G1 X139.675 Y118.129 E0.01006
G1 X139.534 Y118.422 E0.01021
G1 X139.451 Y118.548 E0.00474
G1 X139.236 Y118.793 E0.01021
G1 X138.986 Y118.993 E0.01006
G1 X138.703 Y119.145 E0.01006
G1 X138.400 Y119.244 E0.00998
G1 X137.988 Y119.290 E0.01300
G1 X112.009 Y119.290 E0.81455
G1 X111.681 Y119.260 E0.01035
G1 X111.371 Y119.175 E0.01006
G1 X111.078 Y119.034 E0.01021
G1 X110.952 Y118.951 E0.00474
G1 X110.707 Y118.736 E0.01021
G1 X110.507 Y118.486 E0.01006
G1 X110.355 Y118.203 E0.01006
G1 X110.256 Y117.900 E0.00998
G1 X110.210 Y117.488 E0.01300
G1 X110.210 Y92.509 E0.78319
G1 X110.240 Y92.181 E0.01035
G1 X110.325 Y91.871 E0.01006
G1 X110.516 Y91.502 E0.01305
G1 X110.874 Y91.481 F10800.000
G1 F8640
G1 X110.764 Y91.207 E-0.08890
G1 X111.014 Y91.007 E-0.07406
G1 X111.297 Y90.855 E-0.07406
G1 X111.600 Y90.756 E-0.07353
G1 X112.012 Y90.710 E-0.09576
G1 X113.544 Y90.710 E-0.35369
G1 E-0.04000 F2100.00000
G1 Z0.800 F10800.000
G1 X110.700 Y117.256
G1 Z0.200
G1 E0.80000 F2100.00000
G1 F1200
G1 X112.075 Y118.630 E0.06131
G1 X112.611 Y118.630 E0.01692
G1 X110.870 Y116.889 E0.07767
G1 X110.870 Y116.352 E0.01692
G1 X113.148 Y118.630 E0.10160
G1 X113.684 Y118.630 E0.01692
G1 X110.870 Y115.816 E0.12553
G1 X110.870 Y115.280 E0.01692
G1 X114.220 Y118.630 E0.14946
G1 X114.757 Y118.630 E0.01692
G1 X110.870 Y114.743 E0.17340
G1 X110.870 Y114.207 E0.01692
G1 X115.293 Y118.630 E0.19733
G1 X115.830 Y118.630 E0.01692
G1 X110.870 Y113.670 E0.22126
G1 X110.870 Y113.134 E0.01692
G1 X116.366 Y118.630 E0.24519
G1 X116.903 Y118.630 E0.01692
G1 X110.870 Y112.597 E0.26912
G1 X110.870 Y112.061 E0.01692
G1 X117.439 Y118.630 E0.29305
G1 X117.976 Y118.630 E0.01692
G1 X110.870 Y111.524 E0.31698
G1 X110.870 Y110.988 E0.01692
G1 X118.512 Y118.630 E0.34092
G1 X119.049 Y118.630 E0.01692
G1 X110.870 Y110.451 E0.36485
G1 X110.870 Y109.915 E0.01692
G1 X119.585 Y118.630 E0.38878
G1 X120.122 Y118.630 E0.01692
G1 X110.870 Y109.378 E0.41271
G1 X110.870 Y108.842 E0.01692
G1 X120.658 Y118.630 E0.43664
G1 X121.195 Y118.630 E0.01692
G1 X110.870 Y108.305 E0.46057
G1 X110.870 Y107.769 E0.01692
G1 X121.731 Y118.630 E0.48450
G1 X122.268 Y118.630 E0.01692
G1 X110.870 Y107.232 E0.50844
G1 X110.870 Y106.696 E0.01692
G1 X122.804 Y118.630 E0.53237
G1 X123.341 Y118.630 E0.01692
G1 X110.870 Y106.159 E0.55630
G1 X110.870 Y105.623 E0.01692
G1 X123.877 Y118.630 E0.58023
G1 X124.414 Y118.630 E0.01692
G1 X110.870 Y105.086 E0.60416
G1 X110.870 Y104.550 E0.01692
G1 X124.950 Y118.630 E0.62809
G1 X125.487 Y118.630 E0.01692
G1 X110.870 Y104.013 E0.65202
G1 X110.870 Y103.477 E0.01692
G1 X126.023 Y118.630 E0.67595
G1 X126.559 Y118.630 E0.01692
G1 X110.870 Y102.941 E0.69989
G1 X110.870 Y102.404 E0.01692
G1 X127.096 Y118.630 E0.72382
G1 X127.632 Y118.630 E0.01692
G1 X110.870 Y101.868 E0.74775
G1 X110.870 Y101.331 E0.01692
G1 X128.169 Y118.630 E0.77168
G1 X128.705 Y118.630 E0.01692
G1 X110.870 Y100.795 E0.79561
G1 X110.870 Y100.258 E0.01692
G1 X129.242 Y118.630 E0.81954
G1 X129.778 Y118.630 E0.01692
G1 X110.870 Y99.722 E0.84347
G1 X110.870 Y99.185 E0.01692
G1 X130.315 Y118.630 E0.86741
G1 X130.851 Y118.630 E0.01692
G1 X110.870 Y98.649 E0.89134
G1 X110.870 Y98.112 E0.01692
G1 X131.388 Y118.630 E0.91527
G1 X131.924 Y118.630 E0.01692
G1 X110.870 Y97.576 E0.93920
G1 X110.870 Y97.039 E0.01692
G1 X132.461 Y118.630 E0.96313
G1 X132.997 Y118.630 E0.01692
G1 X110.870 Y96.503 E0.98706
G1 X110.870 Y95.966 E0.01692
G1 X133.534 Y118.630 E1.01099
G1 X134.070 Y118.630 E0.01692
G1 X110.870 Y95.430 E1.03493
M73 Q7 S13
G1 X110.870 Y94.893 E0.01692
G1 X134.607 Y118.630 E1.05886
M73 P7 R13
G1 X135.143 Y118.630 E0.01692
G1 X110.870 Y94.357 E1.08279
G1 X110.870 Y93.820 E0.01692
G1 X135.680 Y118.630 E1.10672
G1 X136.216 Y118.630 E0.01692
G1 X110.870 Y93.284 E1.13065
G1 X110.870 Y92.747 E0.01692
G1 X136.753 Y118.630 E1.15458
G1 X137.289 Y118.630 E0.01692
G1 X110.906 Y92.247 E1.17691
G1 X110.945 Y92.104 E0.00467
G1 X111.070 Y91.874 E0.00824
G1 X137.825 Y118.630 E1.19352
G1 X137.951 Y118.630 E0.00396
G1 X138.311 Y118.579 E0.01146
G1 X111.331 Y91.599 E1.20354
G1 X111.557 Y91.464 E0.00832
G1 X111.689 Y91.421 E0.00438
G1 X138.670 Y118.401 E1.20354
G1 X138.774 Y118.318 E0.00423
G1 X138.930 Y118.125 E0.00780
G1 X112.175 Y91.370 E1.19352
G1 X112.711 Y91.370 E0.01693
G1 X139.094 Y117.753 E1.17690
G1 X139.130 Y117.461 E0.00928
G1 X139.130 Y117.252 E0.00658
G1 X113.248 Y91.370 E1.15456
G1 X113.785 Y91.370 E0.01693
G1 X139.130 Y116.716 E1.13062
G1 X139.130 Y116.179 E0.01692
G1 X114.321 Y91.371 E1.10668
G1 X114.858 Y91.371 E0.01693
G1 X139.130 Y115.643 E1.08274
G1 X139.130 Y115.106 E0.01692
G1 X115.395 Y91.371 E1.05879
G1 X115.931 Y91.371 E0.01693
G1 X139.130 Y114.570 E1.03485
G1 X139.130 Y114.033 E0.01692
G1 X116.468 Y91.371 E1.01091
G1 X117.005 Y91.371 E0.01693
G1 X139.130 Y113.497 E0.98697
G1 X139.130 Y112.960 E0.01692
G1 X117.541 Y91.372 E0.96303
G1 X118.078 Y91.372 E0.01693
G1 X139.130 Y112.424 E0.93909
G1 X139.130 Y111.887 E0.01692
G1 X118.614 Y91.372 E0.91515
G1 X119.151 Y91.372 E0.01693
G1 X139.130 Y111.351 E0.89121
G1 X139.130 Y110.814 E0.01692
G1 X119.688 Y91.372 E0.86727
G1 X120.224 Y91.372 E0.01693
G1 X139.130 Y110.278 E0.84333
G1 X139.130 Y109.741 E0.01692
G1 X120.761 Y91.373 E0.81939
G1 X121.298 Y91.373 E0.01693
G1 X139.129 Y109.205 E0.79545
G1 X139.129 Y108.668 E0.01692
G1 X121.834 Y91.373 E0.77151
G1 X122.371 Y91.373 E0.01693
G1 X139.129 Y108.132 E0.74757
G1 X139.129 Y107.595 E0.01692
G1 X122.908 Y91.373 E0.72363
G1 X123.444 Y91.373 E0.01693
G1 X139.129 Y107.058 E0.69968
G1 X139.129 Y106.522 E0.01692
G1 X123.981 Y91.374 E0.67574
G1 X124.518 Y91.374 E0.01693
G1 X139.129 Y105.985 E0.65180
G1 X139.129 Y105.449 E0.01692
G1 X125.054 Y91.374 E0.62786
G1 X125.591 Y91.374 E0.01693
G1 X139.129 Y104.912 E0.60392
G1 X139.129 Y104.376 E0.01692
G1 X126.127 Y91.374 E0.57998
G1 X126.664 Y91.374 E0.01693
G1 X139.129 Y103.839 E0.55604
G1 X139.129 Y103.303 E0.01692
G1 X127.201 Y91.375 E0.53210
G1 X127.737 Y91.375 E0.01693
G1 X139.129 Y102.766 E0.50816
G1 X139.129 Y102.230 E0.01692
G1 X128.274 Y91.375 E0.48422
G1 X128.811 Y91.375 E0.01693
G1 X139.129 Y101.693 E0.46028
M73 Q15 S12
G1 X139.129 Y101.157 E0.01692
G1 X129.347 Y91.375 E0.43634
G1 X129.884 Y91.375 E0.01693
G1 X139.129 Y100.620 E0.41240
G1 X139.129 Y100.084 E0.01692
G1 X130.421 Y91.376 E0.38846
M73 P15 R12
G1 X130.957 Y91.376 E0.01693
G1 X139.129 Y99.547 E0.36452
G1 X139.129 Y99.011 E0.01692
G1 X131.494 Y91.376 E0.34057
G1 X132.031 Y91.376 E0.01693
G1 X139.129 Y98.474 E0.31663
G1 X139.129 Y97.938 E0.01692
G1 X132.567 Y91.376 E0.29269
G1 X133.104 Y91.376 E0.01693
G1 X139.129 Y97.401 E0.26875
G1 X139.128 Y96.865 E0.01692
G1 X133.640 Y91.377 E0.24481
G1 X134.177 Y91.377 E0.01693
G1 X139.128 Y96.328 E0.22087
G1 X139.128 Y95.792 E0.01692
G1 X134.714 Y91.377 E0.19693
G1 X135.250 Y91.377 E0.01693
G1 X139.128 Y95.255 E0.17299
G1 X139.128 Y94.719 E0.01692
G1 X135.787 Y91.377 E0.14905
G1 X136.324 Y91.377 E0.01693
G1 X139.128 Y94.182 E0.12511
G1 X139.128 Y93.645 E0.01692
G1 X136.860 Y91.378 E0.10117
G1 X137.397 Y91.378 E0.01693
G1 X139.128 Y93.109 E0.07723
G1 X139.128 Y92.572 E0.01692
G1 X137.934 Y91.378 E0.05329
G1 X138.101 Y91.378 E0.00528
G1 X138.300 Y91.414 E0.00637
G1 X138.489 Y91.485 E0.00637
G1 X138.662 Y91.589 E0.00637
G1 X138.809 Y91.717 E0.00615
G1 X139.246 Y92.154 E0.01948
M106 S255
;BEFORE_LAYER_CHANGE
G92 E0.0
;0.4


G1 F8640
G1 X138.809 Y91.717 E-0.14260
G1 X138.662 Y91.589 E-0.04501
G1 X138.489 Y91.485 E-0.04664
G1 X138.300 Y91.414 E-0.04663
G1 X138.101 Y91.378 E-0.04667
G1 X137.934 Y91.378 E-0.03863
G1 X139.128 Y92.572 E-0.39007
G1 X139.128 Y92.589 E-0.00376
G1 E-0.04000 F2100.00000
G1 Z0.800 F10800.000
;AFTER_LAYER_CHANGE
;0.4
G1 X142.160 Y92.018
G1 Z0.400
G1 E0.80000 F2100.00000
G1 F3000
G1 X142.187 Y117.580 E0.80148
G1 X142.117 Y118.273 E0.02181
G1 X141.912 Y118.996 E0.02356
G1 X141.590 Y119.658 E0.02309
G1 X141.142 Y120.270 E0.02379
G1 X140.539 Y120.830 E0.02580
G1 X139.693 Y121.331 E0.03081
G1 X138.904 Y121.590 E0.02606
G1 X138.027 Y121.688 E0.02767
G1 X111.920 Y121.687 E0.81857
G1 X111.224 Y121.616 E0.02193
G1 X110.504 Y121.412 E0.02345
G1 X109.842 Y121.090 E0.02309
G1 X109.230 Y120.642 E0.02379
G1 X108.670 Y120.039 E0.02580
G1 X108.169 Y119.193 E0.03081
G1 X107.910 Y118.404 E0.02606
G1 X107.812 Y117.527 E0.02766
G1 X107.813 Y92.416 E0.78733
G1 X107.883 Y91.733 E0.02153
G1 X108.088 Y91.004 E0.02373
G1 X108.410 Y90.342 E0.02309
G1 X108.858 Y89.730 E0.02379
G1 X109.452 Y89.176 E0.02546
G1 X110.267 Y88.688 E0.02978
G1 X111.039 Y88.423 E0.02560
G1 X111.805 Y88.316 E0.02425
G1 X138.004 Y88.311 E0.82143
G1 X138.751 Y88.379 E0.02353
G1 X139.479 Y88.581 E0.02368
G1 X140.155 Y88.908 E0.02355
G1 X140.773 Y89.361 E0.02401
G1 X141.281 Y89.897 E0.02318
G1 X141.696 Y90.530 E0.02373
G1 X141.992 Y91.231 E0.02386
G1 X142.147 Y91.960 E0.02335
G1 F8640
G1 X142.153 Y95.251 E-0.76000
G1 E-0.04000 F2100.00000
G1 Z1.000 F10800.000
G1 X139.350 Y92.338
G1 Z0.400
G1 E0.80000 F2100.00000
M204 S800
G1 F2700
G1 X139.366 Y92.453 E0.00391
G1 X139.368 Y117.472 E0.84686
G1 X139.343 Y117.744 E0.00925
G1 X139.278 Y117.980 E0.00828
G1 X139.166 Y118.213 E0.00877
G1 X138.944 Y118.487 E0.01194
G1 X138.752 Y118.639 E0.00829
G1 X138.537 Y118.756 E0.00829
G1 X138.311 Y118.829 E0.00804
G1 X137.965 Y118.868 E0.01179
G1 X112.028 Y118.868 E0.87791
G1 X111.756 Y118.843 E0.00925
G1 X111.520 Y118.778 E0.00828
G1 X111.287 Y118.666 E0.00877
G1 X111.013 Y118.444 E0.01194
G1 X110.861 Y118.252 E0.00829
G1 X110.744 Y118.037 E0.00829
G1 X110.671 Y117.811 E0.00804
G1 X110.632 Y117.465 E0.01179
G1 X110.632 Y92.528 E0.84406
G1 X110.657 Y92.256 E0.00925
G1 X110.722 Y92.020 E0.00828
G1 X110.834 Y91.787 E0.00877
G1 X111.056 Y91.513 E0.01194
G1 X111.248 Y91.361 E0.00829
G1 X111.463 Y91.244 E0.00829
G1 X111.689 Y91.171 E0.00804
G1 X112.035 Y91.132 E0.01179
G1 X138.122 Y91.140 E0.88301
G1 X138.363 Y91.184 E0.00829
G1 X138.592 Y91.270 E0.00829
G1 X138.803 Y91.395 E0.00829
G1 X138.987 Y91.556 E0.00828
G1 X139.139 Y91.748 E0.00829
G1 X139.256 Y91.963 E0.00829
G1 X139.342 Y92.279 E0.01108
M204 S1000
G1 X139.631 Y91.803 F10800.000
M204 S800
G1 F1500
G1 X139.730 Y92.105 E0.01077
G1 X139.773 Y92.425 E0.01094
G1 X139.775 Y117.490 E0.84840
G1 X139.746 Y117.817 E0.01111
G1 X139.661 Y118.123 E0.01076
G1 X139.521 Y118.414 E0.01094
G1 X139.439 Y118.539 E0.00505
G1 X139.226 Y118.782 E0.01094
G1 X138.977 Y118.981 E0.01077
G1 X138.697 Y119.131 E0.01077
G1 X138.397 Y119.229 E0.01068
G1 X137.987 Y119.275 E0.01396
G1 X112.010 Y119.275 E0.87930
G1 X111.683 Y119.246 E0.01111
G1 X111.377 Y119.161 E0.01076
G1 X111.086 Y119.021 E0.01094
G1 X110.961 Y118.939 E0.00505
G1 X110.718 Y118.726 E0.01094
G1 X110.519 Y118.477 E0.01076
G1 X110.369 Y118.197 E0.01077
G1 X110.271 Y117.897 E0.01068
G1 X110.225 Y117.487 E0.01396
G1 X110.225 Y92.510 E0.84545
G1 X110.254 Y92.183 E0.01111
G1 X110.339 Y91.877 E0.01076
G1 X110.479 Y91.585 E0.01094
G1 X110.561 Y91.461 E0.00505
G1 X110.774 Y91.218 E0.01094
G1 X111.023 Y91.019 E0.01076
G1 X111.303 Y90.869 E0.01077
G1 X111.603 Y90.771 E0.01068
G1 X112.013 Y90.725 E0.01396
G1 X138.159 Y90.733 E0.88503
G1 X138.472 Y90.790 E0.01077
G1 X138.770 Y90.902 E0.01077
G1 X139.043 Y91.065 E0.01077
G1 X139.282 Y91.274 E0.01076
G1 X139.481 Y91.523 E0.01077
G1 X139.603 Y91.750 E0.00873
M204 S1000
G1 X139.441 Y92.057 F10800.000
G1 F8640
G1 X139.730 Y92.105 E-0.08712
G1 X139.773 Y92.425 E-0.07461
G1 X139.773 Y95.016 E-0.59827
G1 E-0.04000 F2100.00000
G1 Z1.000 F10800.000
G1 X138.287 Y118.708
G1 Z0.400
G1 E0.80000 F2100.00000
M204 S1250
G1 F4800
G1 X138.731 Y118.264 E0.02142
G1 X138.906 Y118.048 E0.00950
G1 X138.991 Y117.872 E0.00668
G1 X139.042 Y117.689 E0.00648
G1 X139.063 Y117.352 E0.01152
